!!!!SEGMENT: pl-cz--iii-667--001-002_scigalski-franciszek--litania-sancta-maria.krn
!!!cenid: 18xx:1079
!!!COM: Ścigalski, Franciszek
!!!COM-rismID: pe30002948
!!!CDT: 1782/01/29-1846/09/27
!!!CNT: Polish
!!!OPR: Litania
!!!OTL: Sancta Maria
!!!OMV: 002
!!!PDT:
!!!AGN: Sacred; Mass
!!!SMS-siglum: PL-CZ
!!!SMS-shelfmark: III-667
!!!SMS-shelfwork: 001-002 M
!!!SMS-variant:
!!!SMS-altvar:
!!!NIFC-rismSourceID: 300001311
!!!NIFC-rismChildID: 300001311
!!!NIFC-islandoraID: pl-cz:39753
!!!URL-pdf-islandora: https://repozytorium.nifc.pl/islandora/object/pl-cz%3A39753/datastream/PDF/view
!!!URL-scan: https://polish.musicsources.pl/pl/lokalizacje/galeria/rekopisy/6971/1 @EN{Scan on Polish Music Sources Website} @PL{Skany w portalu Dziedzictwo Muzyki Polskiej w otwartym dostępie}
!!!IIIF:
!!!ONB-nifc: UWAGA: części Litanii: Kyrie, Sancta Maria, Vas spirituale, Domus aurea,
!!!AIN: 2 alto 1 bass 2 clars 2 cor 1 organ 2 soprn 1 tenor 1 tromp 2 violn
!!!key: B-
**kern	**fba	**dynam	**kern	**dynam	**kern	**dynam	**kern	**text	**dynam	**kern	**text	**kern	**text	**dynam	**kern	**text	**dynam	**kern	**text	**kern	**text	**text	**kern	**kern	**kern	**kern	**dynam	**kern	**dynam
*	*	*	*group5	*	*group5	*	*group4	*	*	*group4	*	*group4	*	*	*group4	*	*	*group3	*	*group3	*	*	*group2	*group2	*group2	*group1	*	*group1	*
*part14	*part14	*part14	*part13	*part13	*part12	*part12	*part11	*part11	*part11	*part10	*part10	*part9	*part9	*part9	*part8	*part8	*part8	*part7	*part7	*part6	*part6	*part6	*part5	*part4	*part3	*part2	*part2	*part1	*part1
*staff14	*	*	*staff13	*	*staff12	*	*staff11	*staff11	*	*staff10	*staff10	*staff9	*staff9	*	*staff8	*staff8	*	*staff7	*staff7	*staff6	*staff6	*staff6	*staff5	*staff4	*staff3	*staff2	*	*staff1	*
*I"Organo.	*	*	*I"Violino 2do	*	*I"Violino Imo	*	*I"Basſso. Basſo	*	*	*I"Tenore. Tenore.	*	*I"Alto. Coro Alto .	*	*	*I"Canto Coro Canto.	*	*	*I"Alto alto.	*	*I"Canto	*	*	*I"Duo Clarini in C.	*I"Corno 2do in F.	*I"Corno Imo in F.	*I"Clarinetto 2do in B.	*	*I"Clarinetto Imo in B.	*
*I'org	*	*	*I'vl 2	*	*I'vl 1	*	*I'Coro B	*	*	*I'Coro T	*	*I'Coro A	*	*	*I'Coro S	*	*	*I'A	*	*I'S	*	*	*I'clno 1 & 2 in C	*I'cor 2 in F	*I'cor 1 in F	*I'cl 2 in B|b	*	*I'cl 1 in B|b	*
*Iorgan	*	*	*Ivioln	*	*Ivioln	*	*Ibass	*	*	*Itenor	*	*Ialto	*	*	*Isoprn	*	*	*Ialto	*	*Isoprn	*	*	*Itromp	*Icor	*Icor	*Iclars	*	*Iclars	*
*ICklav	*	*	*ICstr	*	*ICstr	*	*ICvox	*	*	*ICvox	*	*ICvox	*	*	*ICvox	*	*	*ICvox	*	*ICvox	*	*	*ICbras	*ICbras	*ICbras	*ICww	*	*ICww	*
*IGcont	*	*	*	*	*	*	*IGcoro	*	*	*IGcoro	*	*IGcoro	*	*	*IGcoro	*	*	*IGsolo	*	*IGsolo	*	*	*	*	*	*	*	*	*
*clefF4	*	*	*clefG2	*	*clefG2	*	*clefF4	*	*	*clefC4	*	*clefC3	*	*	*clefC1	*	*	*clefC3	*	*clefC1	*	*	*	*	*	*clefG2	*	*clefG2	*
*	*	*	*	*	*	*	*	*	*	*	*	*	*	*	*	*	*	*	*	*	*	*	*	*	*	*ITrd1c2	*	*ITrd1c2	*
*k[b-e-]	*	*	*k[b-e-]	*	*k[b-e-]	*	*k[b-e-]	*	*	*k[b-e-]	*	*k[b-e-]	*	*	*k[b-e-]	*	*	*k[b-e-]	*	*k[b-e-]	*	*	*	*	*	*k[b-e-]	*	*k[b-e-]	*
*B-:	*	*	*B-:	*	*B-:	*	*B-:	*	*	*B-:	*	*B-:	*	*	*B-:	*	*	*B-:	*	*B-:	*	*	*	*	*	*B-:	*	*B-:	*
*M3/4	*	*	*M3/4	*	*M3/4	*	*M3/4	*	*	*M3/4	*	*M3/4	*	*	*M3/4	*	*	*M3/4	*	*M3/4	*	*	*	*	*	*M3/4	*	*M3/4	*
=1	=1	=1	=1	=1	=1	=1	=1	=1	=1	=1	=1	=1	=1	=1	=1	=1	=1	=1	=1	=1	=1	=1	=1	=1	=1	=1	=1	=1	=1
*	*	*	*	*	*^	*	*	*	*	*	*	*	*	*	*	*	*	*	*	*	*	*	*	*	*	*	*	*	*
*2\right	*	*	*	*	*cue	*	*	*	*	*	*	*	*	*	*	*	*	*	*	*	*	*	*	*	*	*	*	*	*	*
!	!	!	!	!	!	!	!	!	!	!	!	!	!	!	!	!	!	!	!	!	!	!	!	!	!	!	!	!	!LO:TX:b:i:t=dolce	!
!LO:TX:a:i:t=Solo	!	!	!	!	!LO:TX:a:i:t=Andante	!	!	!LO:TX:a:t=11.	!	!	!LO:TX:a:t=11.	!	!LO:TX:a:t=11.	!	!	!LO:TX:a:t=11.	!	!	!LO:TX:a:t=11.	!	!LO:TX:a:t=10.	!	!	!	!	!	!LO:TX:a:t=9.	!	!LO:TX:a:i:t=Solo	!
!LO:TX:a:i:t=Andante	!	!LO:DY:t=p.	!LO:TX:a:i:t=Andante	!LO:DY:t=p.	!LO:TX:a:i:t=Clarinetto Solo	!	!LO:DY:rj	!LO:TX:a:i:t=Andante	!	!	!LO:TX:a:i:t=Andante	!	!LO:TX:a:i:t=Andante	!	!	!LO:TX:a:i:t=Andante	!	!	!LO:TX:a:i:t=Andante	!	!LO:TX:a:i:t=Andante	!	!	!LO:TX:a:i:t=Sancta Ma\nria Tacet.	!LO:TX:a:i:t=Sancta Maria Tacet	!LO:TX:a:i:t=Sancta Maria Tacet	!LO:TX:a:i:t=Andante	!	!LO:TX:a:i:t=Andante	!
8r	.	p	8r	p	4.dd/	8r	p	0.r	.	.	0.r	.	0.r	.	.	0.r	.	.	0.r	.	0.r	.	.	2.ryy	2.ryy	2.ryy	0.r	.	4.dd\	.
8B-\	.	.	8d/	.	.	8f/	.	.	.	.	.	.	.	.	.	.	.	.	.	.	.	.	.	.	.	.	.	.	.	.
*tremolo	*	*	*tremolo	*	*	*tremolo	*	*	*	*	*	*	*	*	*	*	*	*	*	*	*	*	*	*	*	*	*	*	*	*
!	!	!	!	!	!	!LO:TX:b:t=....	!	!	!	!	!	!	!	!	!	!	!	!	!	!	!	!	!	!	!	!	!	!	!	!
8B-\L	.	.	8d/L	.	.	8f'/L	.	.	.	.	.	.	.	.	.	.	.	.	.	.	.	.	.	.	.	.	.	.	.	.
8B-\	.	.	8d/	.	16ee-/LL	8f'/	.	.	.	.	.	.	.	.	.	.	.	.	.	.	.	.	.	.	.	.	.	.	(16ee-\LL	.
.	.	.	.	.	16dd/JJ	.	.	.	.	.	.	.	.	.	.	.	.	.	.	.	.	.	.	.	.	.	.	.	16dd\JJ)	.
8B-\	.	.	8d/	.	8cc/L	8f'/	.	.	.	.	.	.	.	.	.	.	.	.	.	.	.	.	.	.	.	.	.	.	8cc\L	.
8B-\J	.	.	8d/J	.	8dd/J	8f'/J	.	.	.	.	.	.	.	.	.	.	.	.	.	.	.	.	.	.	.	.	.	.	8dd\J	.
*Xtremolo	*	*	*Xtremolo	*	*	*Xtremolo	*	*	*	*	*	*	*	*	*	*	*	*	*	*	*	*	*	*	*	*	*	*	*	*
=2	=2	=2	=2	=2	=2	=2	=2	=2	=2	=2	=2	=2	=2	=2	=2	=2	=2	=2	=2	=2	=2	=2	=2	=2	=2	=2	=2	=2	=2	=2
8r	.	.	8r	.	8ff/L	8r	.	.	.	.	.	.	.	.	.	.	.	.	.	.	.	.	.	2.ryy	2.ryy	2.ryy	.	.	(8ff\L	.
8F\	.	.	8e- 8c/	.	8ee-/J	8f/	.	.	.	.	.	.	.	.	.	.	.	.	.	.	.	.	.	.	.	.	.	.	8ee-\J)	.
*tremolo	*	*	*tremolo	*	*	*tremolo	*	*	*	*	*	*	*	*	*	*	*	*	*	*	*	*	*	*	*	*	*	*	*	*
8F\L	.	.	8e- 8c/L	.	4cc/	8f/L	.	.	.	.	.	.	.	.	.	.	.	.	.	.	.	.	.	.	.	.	.	.	4cc\	.
8F\	.	.	8e- 8c/	.	.	8f/	.	.	.	.	.	.	.	.	.	.	.	.	.	.	.	.	.	.	.	.	.	.	.	.
8F\	.	.	8e- 8c/	.	4r	8f/	.	.	.	.	.	.	.	.	.	.	.	.	.	.	.	.	.	.	.	.	.	.	4r	.
8F\J	.	.	8e- 8c/J	.	.	8f/J	.	.	.	.	.	.	.	.	.	.	.	.	.	.	.	.	.	.	.	.	.	.	.	.
*Xtremolo	*	*	*Xtremolo	*	*	*Xtremolo	*	*	*	*	*	*	*	*	*	*	*	*	*	*	*	*	*	*	*	*	*	*	*	*
=3	=3	=3	=3	=3	=3	=3	=3	=3	=3	=3	=3	=3	=3	=3	=3	=3	=3	=3	=3	=3	=3	=3	=3	=3	=3	=3	=3	=3	=3	=3
8r	.	.	8r	.	4.ee-/	8r	.	.	.	.	.	.	.	.	.	.	.	.	.	.	.	.	.	2.ryy	2.ryy	2.ryy	.	.	4.ee-\	.
8F\	.	.	8e- 8c/	.	.	8f\	.	.	.	.	.	.	.	.	.	.	.	.	.	.	.	.	.	.	.	.	.	.	.	.
*	*	*	*	*	*	*2\right	*	*	*	*	*	*	*	*	*	*	*	*	*	*	*	*	*	*	*	*	*	*	*	*
*tremolo	*	*	*tremolo	*	*	*tremolo	*	*	*	*	*	*	*	*	*	*	*	*	*	*	*	*	*	*	*	*	*	*	*	*
8F\L	.	.	8e- 8c/L	.	.	8f\L	.	.	.	.	.	.	.	.	.	.	.	.	.	.	.	.	.	.	.	.	.	.	.	.
8F\	.	.	8e- 8c/	.	16ff/LL	8f\	.	.	.	.	.	.	.	.	.	.	.	.	.	.	.	.	.	.	.	.	.	.	(16ff\LL	.
.	.	.	.	.	16ee-/JJ	.	.	.	.	.	.	.	.	.	.	.	.	.	.	.	.	.	.	.	.	.	.	.	16ee-\JJ)	.
8F\	.	.	8e- 8c/	.	8dd/L	8f\	.	.	.	.	.	.	.	.	.	.	.	.	.	.	.	.	.	.	.	.	.	.	8dd\L	.
8F\J	.	.	8e- 8c/J	.	8ee-/J	8f\J	.	.	.	.	.	.	.	.	.	.	.	.	.	.	.	.	.	.	.	.	.	.	8ee-\J	.
*Xtremolo	*	*	*Xtremolo	*	*	*Xtremolo	*	*	*	*	*	*	*	*	*	*	*	*	*	*	*	*	*	*	*	*	*	*	*	*
=4	=4	=4	=4	=4	=4	=4	=4	=4	=4	=4	=4	=4	=4	=4	=4	=4	=4	=4	=4	=4	=4	=4	=4	=4	=4	=4	=4	=4	=4	=4
8r	.	.	8r	.	8gg/L	8r	.	.	.	.	.	.	.	.	.	.	.	.	.	.	.	.	.	2.ryy	2.ryy	2.ryy	.	.	(8gg\L	.
8BB-/	.	.	8d/	.	8ff/J	8f\	.	.	.	.	.	.	.	.	.	.	.	.	.	.	.	.	.	.	.	.	.	.	8ff\J)	.
*tremolo	*	*	*tremolo	*	*	*tremolo	*	*	*	*	*	*	*	*	*	*	*	*	*	*	*	*	*	*	*	*	*	*	*	*
8BB-/L	.	.	8d/L	.	4dd/	8f\L	.	.	.	.	.	.	.	.	.	.	.	.	.	.	.	.	.	.	.	.	.	.	4dd\	.
8BB-/	.	.	8d/	.	.	8f\	.	.	.	.	.	.	.	.	.	.	.	.	.	.	.	.	.	.	.	.	.	.	.	.
8BB-/	.	.	8d/	.	4r	8f\	.	.	.	.	.	.	.	.	.	.	.	.	.	.	.	.	.	.	.	.	.	.	4r	.
8BB-/J	.	.	8d/J	.	.	8f\J	.	.	.	.	.	.	.	.	.	.	.	.	.	.	.	.	.	.	.	.	.	.	.	.
*Xtremolo	*	*	*Xtremolo	*	*	*Xtremolo	*	*	*	*	*	*	*	*	*	*	*	*	*	*	*	*	*	*	*	*	*	*	*	*
=5	=5	=5	=5	=5	=5	=5	=5	=5	=5	=5	=5	=5	=5	=5	=5	=5	=5	=5	=5	=5	=5	=5	=5	=5	=5	=5	=5	=5	=5	=5
*	*	*	*	*	*	*	*	*	*	*	*	*	*	*	*	*	*	*	*	*	*	*	*	*	*	*	*	*	*2\right	*
8r	.	.	8r	.	2b-/	8r	.	0.r	.	.	0.r	.	0.r	.	.	0.r	.	.	0.r	.	0.r	.	.	2.ryy	2.ryy	2.ryy	0.r	.	2b-\	.
8BB-/	.	.	8e-/	.	.	8g\	.	.	.	.	.	.	.	.	.	.	.	.	.	.	.	.	.	.	.	.	.	.	.	.
*tremolo	*	*	*tremolo	*	*	*tremolo	*	*	*	*	*	*	*	*	*	*	*	*	*	*	*	*	*	*	*	*	*	*	*	*
8BB-/L	.	.	8e-/L	.	.	8g\L	.	.	.	.	.	.	.	.	.	.	.	.	.	.	.	.	.	.	.	.	.	.	.	.
8BB-/	.	.	8e-/	.	.	8g\	.	.	.	.	.	.	.	.	.	.	.	.	.	.	.	.	.	.	.	.	.	.	.	.
8BB-/	.	.	8e-/	.	8ee-/L	8g\	.	.	.	.	.	.	.	.	.	.	.	.	.	.	.	.	.	.	.	.	.	.	(8ee-\L	.
8BB-/J	.	.	8e-/J	.	8gg/J	8g\J	.	.	.	.	.	.	.	.	.	.	.	.	.	.	.	.	.	.	.	.	.	.	8gg\J)	.
*Xtremolo	*	*	*Xtremolo	*	*	*Xtremolo	*	*	*	*	*	*	*	*	*	*	*	*	*	*	*	*	*	*	*	*	*	*	*	*
!	!	!	!	!	!	!	!	!	!	!	!	!	!	!	!	!	!	!	!	!	!	!	!	!	!	!	!	!	!LO:LB:g=original	!
=6	=6	=6	=6	=6	=6	=6	=6	=6	=6	=6	=6	=6	=6	=6	=6	=6	=6	=6	=6	=6	=6	=6	=6	=6	=6	=6	=6	=6	=6	=6
8r	.	.	8r	.	(<8ff/L	8r	.	.	.	.	.	.	.	.	.	.	.	.	.	.	.	.	.	2.ryy	2.ryy	2.ryy	.	.	(8ff\L	.
8BB-/	.	.	8d/	.	8dd/J)	8f\	.	.	.	.	.	.	.	.	.	.	.	.	.	.	.	.	.	.	.	.	.	.	8dd\J)	.
*tremolo	*	*	*tremolo	*	*	*tremolo	*	*	*	*	*	*	*	*	*	*	*	*	*	*	*	*	*	*	*	*	*	*	*	*
8BB-/L	.	.	8d/L	.	4b-/	8f\L	.	.	.	.	.	.	.	.	.	.	.	.	.	.	.	.	.	.	.	.	.	.	4b-\	.
8BB-/	.	.	8d/	.	.	8f\	.	.	.	.	.	.	.	.	.	.	.	.	.	.	.	.	.	.	.	.	.	.	.	.
8BB-/	.	.	8d/	.	4r	8f\	.	.	.	.	.	.	.	.	.	.	.	.	.	.	.	.	.	.	.	.	.	.	4r	.
8BB-/J	.	.	8d/J	.	.	8f\J	.	.	.	.	.	.	.	.	.	.	.	.	.	.	.	.	.	.	.	.	.	.	.	.
*Xtremolo	*	*	*Xtremolo	*	*	*Xtremolo	*	*	*	*	*	*	*	*	*	*	*	*	*	*	*	*	*	*	*	*	*	*	*	*
!	!	!	!LO:LB:g=original	!	!LO:LB:g=original	!	!	!	!	!	!	!	!	!	!	!	!	!	!	!	!	!	!	!	!	!	!	!	!	!
=7	=7	=7	=7	=7	=7	=7	=7	=7	=7	=7	=7	=7	=7	=7	=7	=7	=7	=7	=7	=7	=7	=7	=7	=7	=7	=7	=7	=7	=7	=7
8r	.	.	8r	.	2b-/	8r	.	.	.	.	.	.	.	.	.	.	.	.	.	.	.	.	.	2.ryy	2.ryy	2.ryy	.	.	2b-\	.
8BB-/	.	.	8e-/	.	.	8g\	.	.	.	.	.	.	.	.	.	.	.	.	.	.	.	.	.	.	.	.	.	.	.	.
*tremolo	*	*	*tremolo	*	*	*tremolo	*	*	*	*	*	*	*	*	*	*	*	*	*	*	*	*	*	*	*	*	*	*	*	*
8BB-/L	.	.	8e-/L	.	.	8g\L	.	.	.	.	.	.	.	.	.	.	.	.	.	.	.	.	.	.	.	.	.	.	.	.
8BB-/	.	.	8e-/	.	.	8g\	.	.	.	.	.	.	.	.	.	.	.	.	.	.	.	.	.	.	.	.	.	.	.	.
8BB-/	.	.	8e-/	.	8ee-/L	8g\	.	.	.	.	.	.	.	.	.	.	.	.	.	.	.	.	.	.	.	.	.	.	8ee-\L	.
8BB-/J	.	.	8e-/J	.	8gg/J	8g\J	.	.	.	.	.	.	.	.	.	.	.	.	.	.	.	.	.	.	.	.	.	.	8gg\J	.
*Xtremolo	*	*	*Xtremolo	*	*	*Xtremolo	*	*	*	*	*	*	*	*	*	*	*	*	*	*	*	*	*	*	*	*	*	*	*	*
!LO:LB:g=original	!	!	!	!	!	!	!	!	!	!	!	!	!	!	!	!	!	!	!	!	!	!	!	!	!	!	!	!	!	!
=8	=8	=8	=8	=8	=8	=8	=8	=8	=8	=8	=8	=8	=8	=8	=8	=8	=8	=8	=8	=8	=8	=8	=8	=8	=8	=8	=8	=8	=8	=8
8r	.	.	8r	.	(<8ff/L	8r	.	.	.	.	.	.	.	.	.	.	.	.	.	.	.	.	.	2.ryy	2.ryy	2.ryy	.	.	(8ff\L	.
8BB-/	.	.	8d/	.	8dd/J)	8f\	.	.	.	.	.	.	.	.	.	.	.	.	.	.	.	.	.	.	.	.	.	.	8dd\J)	.
*tremolo	*	*	*tremolo	*	*	*tremolo	*	*	*	*	*	*	*	*	*	*	*	*	*	*	*	*	*	*	*	*	*	*	*	*
8BB-/L	.	.	8d/L	.	4b-/	8f\L	.	.	.	.	.	.	.	.	.	.	.	.	.	.	.	.	.	.	.	.	.	.	4b-\	.
8BB-/	.	.	8d/	.	.	8f\	.	.	.	.	.	.	.	.	.	.	.	.	.	.	.	.	.	.	.	.	.	.	.	.
8BB-/	.	.	8d/	.	4ff/	8f\	.	.	.	.	.	.	.	.	.	.	.	.	.	.	.	.	.	.	.	.	.	.	4ff\	.
8BB-/J	.	.	8d/J	.	.	8f\J	.	.	.	.	.	.	.	.	.	.	.	.	.	.	.	.	.	.	.	.	.	.	.	.
*Xtremolo	*	*	*Xtremolo	*	*	*Xtremolo	*	*	*	*	*	*	*	*	*	*	*	*	*	*	*	*	*	*	*	*	*	*	*	*
=9	=9	=9	=9	=9	=9	=9	=9	=9	=9	=9	=9	=9	=9	=9	=9	=9	=9	=9	=9	=9	=9	=9	=9	=9	=9	=9	=9	=9	=9	=9
4BB-/	5	.	4d/	.	(<16een/LL	4f\	.	1.r	.	.	1.r	.	1.r	.	.	1.r	.	.	1.r	.	1.r	.	.	2.ryy	2.ryy	2.ryy	2.r	.	(16eeX\LL	.
.	.	.	.	.	16ff/	.	.	.	.	.	.	.	.	.	.	.	.	.	.	.	.	.	.	.	.	.	.	.	16ff\	.
.	.	.	.	.	16gg/	.	.	.	.	.	.	.	.	.	.	.	.	.	.	.	.	.	.	.	.	.	.	.	16gg\	.
.	.	.	.	.	16ff/JJ)	.	.	.	.	.	.	.	.	.	.	.	.	.	.	.	.	.	.	.	.	.	.	.	16ff\JJ)	.
4FF/	7	.	4c/	.	(<8ee-X/L	4e-\	.	.	.	.	.	.	.	.	.	.	.	.	.	.	.	.	.	.	.	.	.	.	(8ee-\L	.
.	.	.	.	.	8cc/)	.	.	.	.	.	.	.	.	.	.	.	.	.	.	.	.	.	.	.	.	.	.	.	8cc\)	.
4BB-/	3	.	4B-/	.	(<8dd/	4d\	.	.	.	.	.	.	.	.	.	.	.	.	.	.	.	.	.	.	.	.	.	.	(8dd\	.
.	.	.	.	.	8b-/J)	.	.	.	.	.	.	.	.	.	.	.	.	.	.	.	.	.	.	.	.	.	.	.	8b-\J)	.
=10	=10	=10	=10	=10	=10	=10	=10	=10	=10	=10	=10	=10	=10	=10	=10	=10	=10	=10	=10	=10	=10	=10	=10	=10	=10	=10	=10	=10	=10	=10
4F\	6	.	4B-/	.	4dd/	4d\	.	.	.	.	.	.	.	.	.	.	.	.	.	.	.	.	.	2.ryy	2.ryy	2.ryy	4r	.	4dd\	.
4FF/	5	.	4A/	.	8cc/L	4c\	.	.	.	.	.	.	.	.	.	.	.	.	.	.	.	.	.	.	.	.	8r	.	8cc|\L	.
.	.	.	.	.	8ee-/	.	.	.	.	.	.	.	.	.	.	.	.	.	.	.	.	.	.	.	.	.	(8cc\L	.	(8ee-\	.
4r	.	.	4r	.	8dd/	4r	.	.	.	.	.	.	.	.	.	.	.	.	.	.	.	.	.	.	.	.	8b-\	.	8dd\	.
.	.	.	.	.	8cc/J	.	.	.	.	.	.	.	.	.	.	.	.	.	.	.	.	.	.	.	.	.	8a\J)	.	8cc\J)	.
*	*	*	*	*	*Xcue	*	*	*	*	*	*	*	*	*	*	*	*	*	*	*	*	*	*	*	*	*	*	*	*	*
*	*	*	*	*	*v	*v	*	*	*	*	*	*	*	*	*	*	*	*	*	*	*	*	*	*	*	*	*	*	*	*
=11	=11	=11	=11	=11	=11	=11	=11	=11	=11	=11	=11	=11	=11	=11	=11	=11	=11	=11	=11	=11	=11	=11	=11	=11	=11	=11	=11	=11	=11
!	!	!	!	!	!LO:TX:a:i:t=Canto Solo	!LO:DY:t=p.	!	!	!	!	!	!	!	!	!	!	!	!	!	!LO:TX:a:i:t=Solo:rj	!	!	!	!	!	!LO:TX:a:t=25.	!	!LO:TX:a:t=25.	!
8r	.	.	8r	.	8r	p	2.r	.	.	2.r	.	2.r	.	.	2.r	.	.	2.r	.	(4.dd\	San-	.	2.ryy	2.ryy	2.ryy	0.r	.	0.r	.
!LO:TX:a:i:t=Solo	!	!	!	!	!	!	!	!	!	!	!	!	!	!	!	!	!	!	!	!	!	!	!	!	!	!	!	!	!
8B-\	.	.	8d/	.	8f/	.	.	.	.	.	.	.	.	.	.	.	.	.	.	.	.	.	.	.	.	.	.	.	.
*tremolo	*	*	*tremolo	*	*tremolo	*	*	*	*	*	*	*	*	*	*	*	*	*	*	*	*	*	*	*	*	*	*	*	*
!	!	!	!	!	!LO:TX:b:t=....	!	!	!	!	!	!	!	!	!	!	!	!	!	!	!	!	!	!	!	!	!	!	!	!
8B-\L	.	.	8d/L	.	8f'/L	.	.	.	.	.	.	.	.	.	.	.	.	.	.	.	.	.	.	.	.	.	.	.	.
8B-\	.	.	8d/	.	8f'/	.	.	.	.	.	.	.	.	.	.	.	.	.	.	16ee-\LL	.	.	.	.	.	.	.	.	.
.	.	.	.	.	.	.	.	.	.	.	.	.	.	.	.	.	.	.	.	16dd\JJ)	.	.	.	.	.	.	.	.	.
8B-\	.	.	8d/	.	8f'/	.	.	.	.	.	.	.	.	.	.	.	.	.	.	8cc\	-cta	.	.	.	.	.	.	.	.
!	!	!	!	!	!	!	!	!	!	!	!	!	!	!	!	!	!LO:DY:b:t=p.	!	!	!	!	!	!	!	!	!	!	!	!
8B-\J	.	.	8d/J	.	8f'/J	.	.	.	.	.	.	.	.	.	.	.	p	.	.	8dd\	Ma-	.	.	.	.	.	.	.	.
*Xtremolo	*	*	*Xtremolo	*	*Xtremolo	*	*	*	*	*	*	*	*	*	*	*	*	*	*	*	*	*	*	*	*	*	*	*	*
=12	=12	=12	=12	=12	=12	=12	=12	=12	=12	=12	=12	=12	=12	=12	=12	=12	=12	=12	=12	=12	=12	=12	=12	=12	=12	=12	=12	=12	=12
!	!	!	!	!	!	!	!	!	!LO:DY:b:t=pp.:rj	!	!	!	!	!LO:DY:b	!	!	!	!	!	!	!	!	!	!	!	!	!	!	!
8r	.	.	8r	.	8r	.	8r	.	pp	8r	.	8r	.	p	8r	.	.	8r	.	8ff\L	-ri-	.	2.ryy	2.ryy	2.ryy	.	.	.	.
8F\	.	.	8e- 8c/	.	8f/	.	8F\	o-	.	8F/	o-	8f\	o-	.	8f/	o-	.	8f\	O-	8ee-\J	.	.	.	.	.	.	.	.	.
*tremolo	*	*	*tremolo	*	*tremolo	*	*	*	*	*	*	*	*	*	*	*	*	*	*	*	*	*	*	*	*	*	*	*	*
8F\L	.	.	8e- 8c/L	.	8f/L	.	8F\	-ra	.	8F/	-ra	8f\	-ra	.	8f/	-ra	.	8f\	-ra	4cc\	-a	.	.	.	.	.	.	.	.
8F\	.	.	8e- 8c/	.	8f/	.	8F\	pro	.	8F/	pro	8f\	pro	.	8f/	pro	.	8f\	pro	.	.	.	.	.	.	.	.	.	.
8F\	.	.	8e- 8c/	.	8f/	.	8F\	no-	.	8F/	no-	8f\	no-	.	8f/	no-	.	8f\	no-	4r	.	.	.	.	.	.	.	.	.
8F\J	.	.	8e- 8c/J	.	8f/J	.	8F\	-bis	.	8F/	-bis	8f\	-bis	.	8f/	-bis	.	8f\	-bis	.	.	.	.	.	.	.	.	.	.
*Xtremolo	*	*	*Xtremolo	*	*Xtremolo	*	*	*	*	*	*	*	*	*	*	*	*	*	*	*	*	*	*	*	*	*	*	*	*
=13	=13	=13	=13	=13	=13	=13	=13	=13	=13	=13	=13	=13	=13	=13	=13	=13	=13	=13	=13	=13	=13	=13	=13	=13	=13	=13	=13	=13	=13
!	!	!	!	!	!	!	!LO:TX:a:t=1.	!	!	!LO:TX:a:t=1.	!	!LO:TX:a:t=1.	!	!	!LO:TX:a:t=1	!	!	!LO:TX:a:t=1.	!	!	!	!	!	!	!	!	!	!	!
8r	.	.	8r	.	8r	.	2.r	.	.	2.r	.	2.r	.	.	2.r	.	.	2.r	.	4.ee-\	San-	.	2.ryy	2.ryy	2.ryy	.	.	.	.
8F\	.	.	8e- 8c/	.	8f/	.	.	.	.	.	.	.	.	.	.	.	.	.	.	.	.	.	.	.	.	.	.	.	.
*tremolo	*	*	*tremolo	*	*tremolo	*	*	*	*	*	*	*	*	*	*	*	*	*	*	*	*	*	*	*	*	*	*	*	*
8F\L	.	.	8e- 8c/L	.	8f/L	.	.	.	.	.	.	.	.	.	.	.	.	.	.	.	.	.	.	.	.	.	.	.	.
8F\	.	.	8e- 8c/	.	8f/	.	.	.	.	.	.	.	.	.	.	.	.	.	.	8ee-\	-cta	.	.	.	.	.	.	.	.
8F\	.	.	8e- 8c/	.	8f/	.	.	.	.	.	.	.	.	.	.	.	.	.	.	8dd\	De-	.	.	.	.	.	.	.	.
8F\J	.	.	8e- 8c/J	.	8f/J	.	.	.	.	.	.	.	.	.	.	.	.	.	.	8ee-\	-i	.	.	.	.	.	.	.	.
*Xtremolo	*	*	*Xtremolo	*	*Xtremolo	*	*	*	*	*	*	*	*	*	*	*	*	*	*	*	*	*	*	*	*	*	*	*	*
!	!	!	!	!	!	!	!	!	!	!	!	!	!	!	!	!	!	!	!	!LO:LB:g=original	!	!	!	!	!	!	!	!	!
=14	=14	=14	=14	=14	=14	=14	=14	=14	=14	=14	=14	=14	=14	=14	=14	=14	=14	=14	=14	=14	=14	=14	=14	=14	=14	=14	=14	=14	=14
8r	.	.	8r	.	8r	.	8r	.	.	8r	.	8r	.	.	8r	.	.	8r	.	8.gg\	ge-	.	2.ryy	2.ryy	2.ryy	.	.	.	.
8BB-/	.	.	8d/	.	8f/	.	8B-\	o-	.	8B-\	o-	8b-\	o-	.	8b-\	o-	.	8b-\	o-	.	.	.	.	.	.	.	.	.	.
.	.	.	.	.	.	.	.	.	.	.	.	.	.	.	.	.	.	.	.	16ff\	-ni-	.	.	.	.	.	.	.	.
*tremolo	*	*	*tremolo	*	*tremolo	*	*	*	*	*	*	*	*	*	*	*	*	*	*	*	*	*	*	*	*	*	*	*	*
!	!	!	!	!	!LO:TX:b:t=....	!	!	!	!	!	!	!	!	!	!	!	!	!	!	!	!	!	!	!	!	!	!	!	!
8BB-/L	.	.	8d/L	.	8f'/L	.	8B-\	-ra	.	8B-\	-ra	8b-\	-ra	.	8b-\	-ra	.	8b-\	-ra	4dd\	-trix	.	.	.	.	.	.	.	.
8BB-/	.	.	8d/	.	8f'/	.	8B-\	pro	.	8B-\	pro	8b-\	pro	.	8b-\	pro	.	8b-\	pro	.	.	.	.	.	.	.	.	.	.
8BB-/	.	.	8d/	.	8f'/	.	8B-\	no-	.	8B-\	no-	8b-\	no-	.	8b-\	no-	.	8b-\	no-	4r	.	.	.	.	.	.	.	.	.
8BB-/J	.	.	8d/J	.	8f'/J	.	8B-\	-bis	.	8B-\	-bis	8b-\	-bis	.	8b-\	-bis	.	8b-\	-bis	.	.	.	.	.	.	.	.	.	.
*Xtremolo	*	*	*Xtremolo	*	*Xtremolo	*	*	*	*	*	*	*	*	*	*	*	*	*	*	*	*	*	*	*	*	*	*	*	*
!	!	!	!	!	!LO:LB:g=original	!	!	!	!	!	!	!LO:LB:g=original	!	!	!	!	!	!	!	!	!	!	!	!	!	!	!	!	!
=15	=15	=15	=15	=15	=15	=15	=15	=15	=15	=15	=15	=15	=15	=15	=15	=15	=15	=15	=15	=15	=15	=15	=15	=15	=15	=15	=15	=15	=15
!	!	!	!	!	!	!	!LO:TX:a:t=1.	!	!	!LO:TX:a:t=1.	!	!LO:TX:a:t=1.	!	!	!LO:TX:a:t=1.	!	!	!LO:TX:a:t=1.	!	!	!	!	!	!	!	!	!	!	!
8r	.	.	8r	.	8r	.	2.r	.	.	2.r	.	2.r	.	.	2.r	.	.	2.r	.	4.b-\	San-	.	2.ryy	2.ryy	2.ryy	0.r	.	0.r	.
8BB-/	6 4	.	8e-/	.	8g/	.	.	.	.	.	.	.	.	.	.	.	.	.	.	.	.	.	.	.	.	.	.	.	.
*tremolo	*	*	*tremolo	*	*tremolo	*	*	*	*	*	*	*	*	*	*	*	*	*	*	*	*	*	*	*	*	*	*	*	*
8BB-/L	.	.	8e-/L	.	8g/L	.	.	.	.	.	.	.	.	.	.	.	.	.	.	.	.	.	.	.	.	.	.	.	.
8BB-/	.	.	8e-/	.	8g/	.	.	.	.	.	.	.	.	.	.	.	.	.	.	8b-\	-cta	.	.	.	.	.	.	.	.
8BB-/	.	.	8e-/	.	8g/	.	.	.	.	.	.	.	.	.	.	.	.	.	.	8ee-\	Vir-	.	.	.	.	.	.	.	.
!	!	!	!	!	!	!	!	!	!	!	!	!	!	!	!LO:TX:b:i:t=Volti Cito	!	!	!	!	!	!	!	!	!	!	!	!	!	!
8BB-/J	.	.	8e-/J	.	8g/J	.	.	.	.	.	.	.	.	.	.	.	.	.	.	8gg\	-go	.	.	.	.	.	.	.	.
*Xtremolo	*	*	*Xtremolo	*	*Xtremolo	*	*	*	*	*	*	*	*	*	*	*	*	*	*	*	*	*	*	*	*	*	*	*	*
!	!	!	!LO:LB:g=original	!	!	!	!LO:LB:g=original	!	!	!LO:LB:g=original	!	!	!	!	!LO:PB:g=original	!	!	!LO:LB:g=original	!	!	!	!	!	!	!	!	!	!	!
=16	=16	=16	=16	=16	=16	=16	=16	=16	=16	=16	=16	=16	=16	=16	=16	=16	=16	=16	=16	=16	=16	=16	=16	=16	=16	=16	=16	=16	=16
8r	.	.	8r	.	8r	.	8r	.	.	8r	.	8r	.	.	8r	.	.	8r	.	8.ff\	Vir-	.	2.ryy	2.ryy	2.ryy	.	.	.	.
8BB-/	.	.	8d/	.	8f/	.	8B-\	o-	.	8B-\	o-	8b-\	o-	.	8b-\	o-	.	8b-\	o-	.	.	.	.	.	.	.	.	.	.
.	.	.	.	.	.	.	.	.	.	.	.	.	.	.	.	.	.	.	.	16dd\	-gi-	.	.	.	.	.	.	.	.
*tremolo	*	*	*tremolo	*	*tremolo	*	*	*	*	*	*	*	*	*	*	*	*	*	*	*	*	*	*	*	*	*	*	*	*
8BB-/L	.	.	8d/L	.	8f/L	.	8B-\	-ra	.	8B-\	-ra	8b-\	-ra	.	8b-\	-ra	.	8b-\	-ra	4b-\	-num	.	.	.	.	.	.	.	.
8BB-/	.	.	8d/	.	8f/	.	8B-\	pro	.	8B-\	pro	8b-\	pro	.	8b-\	pro	.	8b-\	pro	.	.	.	.	.	.	.	.	.	.
8BB-/	.	.	8d/	.	8f/	.	8B-\	no-	.	8B-\	no-	8b-\	no-	.	8b-\	no-	.	8b-\	no-	4r	.	.	.	.	.	.	.	.	.
8BB-/J	.	.	8d/J	.	8f/J	.	8B-\	-bis	.	8B-\	-bis	8b-\	-bis	.	8b-\	-bis	.	8b-\	-bis	.	.	.	.	.	.	.	.	.	.
*Xtremolo	*	*	*Xtremolo	*	*Xtremolo	*	*	*	*	*	*	*	*	*	*	*	*	*	*	*	*	*	*	*	*	*	*	*	*
=17	=17	=17	=17	=17	=17	=17	=17	=17	=17	=17	=17	=17	=17	=17	=17	=17	=17	=17	=17	=17	=17	=17	=17	=17	=17	=17	=17	=17	=17
!LO:TX:t=P:problem=takty nr 17-18 zapisane repetycją	!	!	!	!	!	!	!LO:TX:a:t=1.	!	!	!LO:TX:a:t=1.	!	!LO:TX:a:t=1	!	!	!LO:TX:a:t=1.	!	!	!LO:TX:a:t=1.	!	!	!	!	!	!	!	!	!	!	!
8ryy	.	.	8r	.	8r	.	2.r	.	.	2.r	.	2.r	.	.	2.r	.	.	2.r	.	4.b-\	San-	.	2.ryy	2.ryy	2.ryy	.	.	.	.
8BB-/yy	6 4	.	8e-/	.	8g/	.	.	.	.	.	.	.	.	.	.	.	.	.	.	.	.	.	.	.	.	.	.	.	.
*tremolo	*	*	*tremolo	*	*tremolo	*	*	*	*	*	*	*	*	*	*	*	*	*	*	*	*	*	*	*	*	*	*	*	*
8BB-/Lyy	.	.	8e-/L	.	8g/L	.	.	.	.	.	.	.	.	.	.	.	.	.	.	.	.	.	.	.	.	.	.	.	.
8BB-/yy	.	.	8e-/	.	8g/	.	.	.	.	.	.	.	.	.	.	.	.	.	.	8b-\	-cto	.	.	.	.	.	.	.	.
8BB-/yy	.	.	8e-/	.	8g/	.	.	.	.	.	.	.	.	.	.	.	.	.	.	8ee-\	Vir-	.	.	.	.	.	.	.	.
8BB-/Jyy	.	.	8e-/J	.	8g/J	.	.	.	.	.	.	.	.	.	.	.	.	.	.	8gg\	-go	.	.	.	.	.	.	.	.
*Xtremolo	*	*	*Xtremolo	*	*Xtremolo	*	*	*	*	*	*	*	*	*	*	*	*	*	*	*	*	*	*	*	*	*	*	*	*
=18	=18	=18	=18	=18	=18	=18	=18	=18	=18	=18	=18	=18	=18	=18	=18	=18	=18	=18	=18	=18	=18	=18	=18	=18	=18	=18	=18	=18	=18
8ryy	.	.	8r	.	8r	.	8r	.	.	8r	.	8r	.	.	8r	.	.	8r	.	8.ff\	Vir-	.	2.ryy	2.ryy	2.ryy	.	.	.	.
8BB-/yy	.	.	8d/	.	8f/	.	8B-\	o-	.	8B-\	o-	8b-\	o-	.	8b-\	o-	.	8b-\	o-	.	.	.	.	.	.	.	.	.	.
.	.	.	.	.	.	.	.	.	.	.	.	.	.	.	.	.	.	.	.	16dd\	-gi-	.	.	.	.	.	.	.	.
*tremolo	*	*	*tremolo	*	*tremolo	*	*	*	*	*	*	*	*	*	*	*	*	*	*	*	*	*	*	*	*	*	*	*	*
8BB-/Lyy	.	.	8d/L	.	8f/L	.	8B-\	-ra	.	8B-\	-ra	8b-\	-ra	.	8b-\	-ra	.	8b-\	-ra	4b-\	-num	.	.	.	.	.	.	.	.
8BB-/yy	.	.	8d/	.	8f/	.	8B-\	pro	.	8B-\	pro	8b-\	pro	.	8b-\	pro	.	8b-\	pro	.	.	.	.	.	.	.	.	.	.
8BB-/yy	.	.	8d/	.	8f/	.	8B-\	no-	.	8B-\	no-	8b-\	no-	.	8b-\	no-	.	8b-\	no-	4ff\	o-	.	.	.	.	.	.	.	.
8BB-/Jyy	.	.	8d/J	.	8f/J	.	8B-\	-bis	.	8B-\	-bis	8b-\	-bis	.	8b-\	-bis	.	8b-\	-bis	.	.	.	.	.	.	.	.	.	.
*Xtremolo	*	*	*Xtremolo	*	*Xtremolo	*	*	*	*	*	*	*	*	*	*	*	*	*	*	*	*	*	*	*	*	*	*	*	*
=19	=19	=19	=19	=19	=19	=19	=19	=19	=19	=19	=19	=19	=19	=19	=19	=19	=19	=19	=19	=19	=19	=19	=19	=19	=19	=19	=19	=19	=19
4BB-/	5 3	.	4d/	.	4f/	.	4B-\	o-	.	4d\	o-	4f\	o-	.	4ff\	o-	.	4f\	o-	(16een\LL	.	.	2.ryy	2.ryy	2.ryy	0.r	.	0.r	.
.	.	.	.	.	.	.	.	.	.	.	.	.	.	.	.	.	.	.	.	16ff\	.	.	.	.	.	.	.	.	.
.	.	.	.	.	.	.	.	.	.	.	.	.	.	.	.	.	.	.	.	16gg\	.	.	.	.	.	.	.	.	.
.	.	.	.	.	.	.	.	.	.	.	.	.	.	.	.	.	.	.	.	16ff\JJ)	.	.	.	.	.	.	.	.	.
4FF/	7	.	4c/	.	4e-/	.	4F\	-ra	.	4c\	-ra	4f\	-ra	.	4ee-\	-ra	.	4f\	-ra	4ee-X\	-ra	.	.	.	.	.	.	.	.
4BB-/	3	.	4B-/	.	4d/	.	4BB-/	pro	.	4B-\	pro	4f\	pro	.	4dd\	pro	.	4f\	pro	4dd\	pro-	.	.	.	.	.	.	.	.
=20	=20	=20	=20	=20	=20	=20	=20	=20	=20	=20	=20	=20	=20	=20	=20	=20	=20	=20	=20	=20	=20	=20	=20	=20	=20	=20	=20	=20	=20
4F\	6	.	4B-/	.	4d/	.	4F\	no-	.	4B-\	no-	4f\	no-	.	4dd\	no-	.	4f\	no-	4dd\	-no-	.	2.ryy	2.ryy	2.ryy	.	.	.	.
4FF/	5	.	4A/	.	4c/	.	4F\	-bis	.	4A\	-bis	4f\	-bis	.	4cc\	-bis	.	4f\	-bis	4cc\	-bis	.	.	.	.	.	.	.	.
!LO:TX:b:i:t=Volti Sub	!	!	!LO:TX:b:i:t=Volti Cito	!	!	!	!	!	!	!	!	!	!	!	!	!	!	!	!	!LO:TX:b:i:t=Volti Cito	!	!	!	!	!	!	!	!	!
4r	.	.	4r	.	4r	.	4r	.	.	4r	.	4r	.	.	4r	.	.	4r	.	4r	.	.	.	.	.	.	.	.	.
!LO:PB:g=original	!	!	!LO:PB:g=original	!	!	!	!	!	!	!	!	!	!	!	!	!	!	!	!	!LO:PB:g=original	!	!	!	!	!	!	!	!	!
=21	=21	=21	=21	=21	=21	=21	=21	=21	=21	=21	=21	=21	=21	=21	=21	=21	=21	=21	=21	=21	=21	=21	=21	=21	=21	=21	=21	=21	=21
*	*	*	*	*	*	*	*	*	*	*	*	*	*	*	*	*	*	*	*	*2\right	*	*	*	*	*	*	*	*	*
!LO:TX:a:i:t=Solo	!	!	!	!	!	!	!LO:TX:a:t=1.	!	!	!LO:TX:a:t=1	!	!LO:TX:a:t=1.	!	!	!LO:TX:a:t=1	!	!	!LO:TX:a:t=1	!	!	!	!	!	!	!	!	!	!	!
8r	.	.	8r	.	8r	.	2.r	.	.	2.r	.	2.r	.	.	2.r	.	.	2.r	.	2cc\	Ma-	San-	2.ryy	2.ryy	2.ryy	.	.	.	.
8F\	.	.	8f 8c/	.	8a/	.	.	.	.	.	.	.	.	.	.	.	.	.	.	.	.	.	.	.	.	.	.	.	.
*tremolo	*	*	*tremolo	*	*tremolo	*	*	*	*	*	*	*	*	*	*	*	*	*	*	*	*	*	*	*	*	*	*	*	*
8F\L	.	.	8f 8c/L	.	8a/L	.	.	.	.	.	.	.	.	.	.	.	.	.	.	.	.	.	.	.	.	.	.	.	.
8F\	.	.	8f 8c/	.	8a/	.	.	.	.	.	.	.	.	.	.	.	.	.	.	.	.	.	.	.	.	.	.	.	.
8F\	.	.	8f 8c/	.	8a/	.	.	.	.	.	.	.	.	.	.	.	.	.	.	(8aa\L	-ter	-cte	.	.	.	.	.	.	.
!	!	!	!	!	!	!	!	!	!	!	!	!LO:TX:b:i:t=Volti Cito	!	!	!	!	!	!	!	!	!	!	!	!	!	!	!	!	!
8F\J	.	.	8f 8c/J	.	8a/J	.	.	.	.	.	.	.	.	.	.	.	.	.	.	8ff\J)	.	.	.	.	.	.	.	.	.
*Xtremolo	*	*	*Xtremolo	*	*Xtremolo	*	*	*	*	*	*	*	*	*	*	*	*	*	*	*	*	*	*	*	*	*	*	*	*
!	!	!	!	!	!	!	!	!	!	!	!	!LO:PB:g=original	!	!	!	!	!	!	!	!	!	!	!	!	!	!	!	!	!
=22	=22	=22	=22	=22	=22	=22	=22	=22	=22	=22	=22	=22	=22	=22	=22	=22	=22	=22	=22	=22	=22	=22	=22	=22	=22	=22	=22	=22	=22
8r	.	.	8r	.	8r	.	8r	.	.	8r	.	8r	.	.	8r	.	.	8r	.	8ff\L	Chri-	Jo-	2.ryy	2.ryy	2.ryy	.	.	.	.
8C/	.	.	8en/	.	8b- 8g/	.	8C/	o-	.	8c\	o-	8c\	o-	.	8cc\	o-	.	8c\	o-	8een\J	.	-han-	.	.	.	.	.	.	.
*tremolo	*	*	*tremolo	*	*tremolo	*	*	*	*	*	*	*	*	*	*	*	*	*	*	*	*	*	*	*	*	*	*	*	*
!	!	!	!LO:TX:b:t=....	!	!	!	!	!	!	!	!	!	!	!	!	!	!	!	!	!	!	!	!	!	!	!	!	!	!
8C/L	.	.	8e'/L	.	8b- 8g/L	.	8C/	-ra	.	8c\	-ra	8c\	-ra	.	8cc\	-ra	.	8c\	-ra	4ee\	-sti	-nes	.	.	.	.	.	.	.
8C/	.	.	8e'/	.	8b- 8g/	.	8C/	pro	.	8c\	pro	8c\	pro	.	8cc\	pro	.	8c\	pro	.	.	.	.	.	.	.	.	.	.
8C/	.	.	8e'/	.	8b- 8g/	.	8C/	no-	.	8c\	no-	8c\	no-	.	8cc\	no-	.	8c\	no-	4r	.	.	.	.	.	.	.	.	.
8C/J	.	.	8e'/J	.	8b- 8g/J	.	8C/	-bis	.	8c\	-bis	8c\	-bis	.	8cc\	-bis	.	8c\	-bis	.	.	.	.	.	.	.	.	.	.
*Xtremolo	*	*	*Xtremolo	*	*Xtremolo	*	*	*	*	*	*	*	*	*	*	*	*	*	*	*	*	*	*	*	*	*	*	*	*
!	!	!	!	!	!	!	!LO:LB:g=original	!	!	!LO:LB:g=original	!	!	!	!	!LO:LB:g=original	!	!	!	!	!	!	!	!	!	!	!	!	!	!
=23	=23	=23	=23	=23	=23	=23	=23	=23	=23	=23	=23	=23	=23	=23	=23	=23	=23	=23	=23	=23	=23	=23	=23	=23	=23	=23	=23	=23	=23
!	!	!	!	!	!	!	!LO:TX:a:t=1.	!	!	!LO:TX:a:t=1	!	!LO:TX:a:t=1	!	!	!LO:TX:a:t=1	!	!	!LO:TX:a:t=1.	!	!	!	!	!	!	!	!	!	!	!
8r	.	.	8r	.	8r	.	2.r	.	.	2.r	.	2.r	.	.	2.r	.	.	2.r	.	4gg\	Ma-	Ne-	2.ryy	2.ryy	2.ryy	0.r	.	0.r	.
8C/	.	.	8en/	.	8b- 8g/	.	.	.	.	.	.	.	.	.	.	.	.	.	.	.	.	.	.	.	.	.	.	.	.
*tremolo	*	*	*tremolo	*	*tremolo	*	*	*	*	*	*	*	*	*	*	*	*	*	*	*	*	*	*	*	*	*	*	*	*
8C/L	.	.	8e/L	.	8b- 8g/L	.	.	.	.	.	.	.	.	.	.	.	.	.	.	8gg\	-ter	-po-	.	.	.	.	.	.	.
8C/	.	.	8e/	.	8b- 8g/	.	.	.	.	.	.	.	.	.	.	.	.	.	.	8een\	di-	-mo-	.	.	.	.	.	.	.
8C/	.	.	8e/	.	8b- 8g/	.	.	.	.	.	.	.	.	.	.	.	.	.	.	8cc\	-vi-	-ce-	.	.	.	.	.	.	.
8C/J	.	.	8e/J	.	8b- 8g/J	.	.	.	.	.	.	.	.	.	.	.	.	.	.	8b-\	-nae	-ne	.	.	.	.	.	.	.
*Xtremolo	*	*	*Xtremolo	*	*Xtremolo	*	*	*	*	*	*	*	*	*	*	*	*	*	*	*	*	*	*	*	*	*	*	*	*
!	!	!	!	!	!	!	!	!	!	!	!	!	!	!	!	!	!	!LO:LB:g=original	!	!	!	!	!	!	!	!	!	!	!
=24	=24	=24	=24	=24	=24	=24	=24	=24	=24	=24	=24	=24	=24	=24	=24	=24	=24	=24	=24	=24	=24	=24	=24	=24	=24	=24	=24	=24	=24
8r	.	.	8r	.	8r	.	8r	.	.	8r	.	8r	.	.	8r	.	.	8r	.	8.a\	gra-	La-	2.ryy	2.ryy	2.ryy	.	.	.	.
8F\	.	.	8f 8c/	.	8a/	.	8F\	o-	.	8f\	o-	8f\	o-	.	8ff\	o-	.	8f\	o-	.	.	.	.	.	.	.	.	.	.
.	.	.	.	.	.	.	.	.	.	.	.	.	.	.	.	.	.	.	.	16b-\	-ti-	-chri-	.	.	.	.	.	.	.
*tremolo	*	*	*tremolo	*	*tremolo	*	*	*	*	*	*	*	*	*	*	*	*	*	*	*	*	*	*	*	*	*	*	*	*
8F\L	.	.	8f 8c/L	.	8a/L	.	8F\	-ra	.	8f\	-ra	8f\	-ra	.	8ff\	-ra	.	8f\	-ra	4cc\	-a	-mis,	.	.	.	.	.	.	.
8F\	.	.	8f 8c/	.	8a/	.	8F\	pro	.	8f\	pro	8f\	pro	.	8ff\	pro	.	8f\	pro	.	.	.	.	.	.	.	.	.	.
8F\	.	.	8f 8c/	.	8a/	.	8F\	no-	.	8f\	no-	8f\	no-	.	8ff\	no-	.	8f\	no-	4r	.	.	.	.	.	.	.	.	.
8F\J	.	.	8f 8c/J	.	8a/J	.	8F\	-bis	.	8f\	-bis	8f\	-bis	.	8ff\	-bis	.	8f\	-bis	.	.	.	.	.	.	.	.	.	.
*Xtremolo	*	*	*Xtremolo	*	*Xtremolo	*	*	*	*	*	*	*	*	*	*	*	*	*	*	*	*	*	*	*	*	*	*	*	*
!	!	!	!	!	!LO:LB:g=original	!	!	!	!	!	!	!	!	!	!	!	!	!	!	!	!	!	!	!	!	!	!	!	!
=25	=25	=25	=25	=25	=25	=25	=25	=25	=25	=25	=25	=25	=25	=25	=25	=25	=25	=25	=25	=25	=25	=25	=25	=25	=25	=25	=25	=25	=25
!	!	!	!	!	!	!	!LO:TX:a:t=1.	!	!	!LO:TX:a:t=1.	!	!LO:TX:a:t=1.	!	!	!LO:TX:a:t=1	!	!	!LO:TX:a:t=1	!	!	!	!	!	!	!	!	!	!	!
8r	.	.	8r	.	8r	.	2.r	.	.	2.r	.	2.r	.	.	2.r	.	.	2.r	.	2cc\	Ma-	pre-	2.ryy	2.ryy	2.ryy	.	.	.	.
8F\	.	.	8f 8c/	.	8a/	.	.	.	.	.	.	.	.	.	.	.	.	.	.	.	.	.	.	.	.	.	.	.	.
*tremolo	*	*	*tremolo	*	*tremolo	*	*	*	*	*	*	*	*	*	*	*	*	*	*	*	*	*	*	*	*	*	*	*	*
8F\L	.	.	8f 8c/L	.	8a/L	.	.	.	.	.	.	.	.	.	.	.	.	.	.	.	.	.	.	.	.	.	.	.	.
8F\	.	.	8f 8c/	.	8a/	.	.	.	.	.	.	.	.	.	.	.	.	.	.	.	.	.	.	.	.	.	.	.	.
8F\	.	.	8f 8c/	.	8a/	.	.	.	.	.	.	.	.	.	.	.	.	.	.	8aa\	-ter	-ci-	.	.	.	.	.	.	.
8F\J	.	.	8f 8c/J	.	8a/J	.	.	.	.	.	.	.	.	.	.	.	.	.	.	8ff\	pu-	-bus	.	.	.	.	.	.	.
*Xtremolo	*	*	*Xtremolo	*	*Xtremolo	*	*	*	*	*	*	*	*	*	*	*	*	*	*	*	*	*	*	*	*	*	*	*	*
!	!	!	!	!	!	!	!	!	!	!	!	!	!	!	!	!	!	!	!	!LO:LB:g=original	!	!	!	!	!	!	!	!	!
=26	=26	=26	=26	=26	=26	=26	=26	=26	=26	=26	=26	=26	=26	=26	=26	=26	=26	=26	=26	=26	=26	=26	=26	=26	=26	=26	=26	=26	=26
8r	.	.	8r	.	8r	.	8r	.	.	8r	.	8r	.	.	8r	.	.	8r	.	8.ff\	-ris-	Se-	2.ryy	2.ryy	2.ryy	.	.	.	.
8C/	.	.	8en/	.	8b- 8g/	.	8C/	o-	.	8c\	o-	8c\	o-	.	8cc\	o-	.	8c\	o-	.	.	.	.	.	.	.	.	.	.
.	.	.	.	.	.	.	.	.	.	.	.	.	.	.	.	.	.	.	.	16een\	-ſi-	.	.	.	.	.	.	.	.
*tremolo	*	*	*tremolo	*	*tremolo	*	*	*	*	*	*	*	*	*	*	*	*	*	*	*	*	*	*	*	*	*	*	*	*
8C/L	.	.	8e/L	.	8b- 8g/L	.	8C/	-ra	.	8c\	-ra	8c\	-ra	.	8cc\	-ra	.	8c\	-ra	4ee\	-ma	-num	.	.	.	.	.	.	.
8C/	.	.	8e/	.	8b- 8g/	.	8C/	pro	.	8c\	pro	8c\	pro	.	8cc\	pro	.	8c\	pro	.	.	.	.	.	.	.	.	.	.
8C/	.	.	8e/	.	8b- 8g/	.	8C/	no-	.	8c\	no-	8c\	no-	.	8cc\	no-	.	8c\	no-	4r	.	.	.	.	.	.	.	.	.
8C/J	.	.	8e/J	.	8b- 8g/J	.	8C/	-bis	.	8c\	-bis	8c\	-bis	.	8cc\	-bis	.	8c\	-bis	.	.	.	.	.	.	.	.	.	.
*Xtremolo	*	*	*Xtremolo	*	*Xtremolo	*	*	*	*	*	*	*	*	*	*	*	*	*	*	*	*	*	*	*	*	*	*	*	*
=27	=27	=27	=27	=27	=27	=27	=27	=27	=27	=27	=27	=27	=27	=27	=27	=27	=27	=27	=27	=27	=27	=27	=27	=27	=27	=27	=27	=27	=27
!	!	!	!	!	!	!	!LO:TX:a:t=1.	!	!	!LO:TX:a:t=1	!	!LO:TX:a:t=1.	!	!	!LO:TX:a:t=1	!	!	!LO:TX:a:t=1.	!	!	!	!	!	!	!	!	!	!	!
8r	.	.	8r	.	8r	.	2.r	.	.	2.r	.	2.r	.	.	2.r	.	.	2.r	.	4.gg\	Ma-	tu-	2.ryy	2.ryy	2.ryy	0.r	.	0.r	.
8C/	.	.	8en/	.	8b- 8g/	.	.	.	.	.	.	.	.	.	.	.	.	.	.	.	.	.	.	.	.	.	.	.	.
*tremolo	*	*	*tremolo	*	*tremolo	*	*	*	*	*	*	*	*	*	*	*	*	*	*	*	*	*	*	*	*	*	*	*	*
8C/L	.	.	8e/L	.	8b- 8g/L	.	.	.	.	.	.	.	.	.	.	.	.	.	.	.	.	.	.	.	.	.	.	.	.
8C/	.	.	8e/	.	8b- 8g/	.	.	.	.	.	.	.	.	.	.	.	.	.	.	8een\	.	-o-	.	.	.	.	.	.	.
8C/	.	.	8e/	.	8b- 8g/	.	.	.	.	.	.	.	.	.	.	.	.	.	.	8cc\	-ter	-rum	.	.	.	.	.	.	.
8C/J	.	.	8e/J	.	8b- 8g/J	.	.	.	.	.	.	.	.	.	.	.	.	.	.	8b-\	cas-	pa-	.	.	.	.	.	.	.
*Xtremolo	*	*	*Xtremolo	*	*Xtremolo	*	*	*	*	*	*	*	*	*	*	*	*	*	*	*	*	*	*	*	*	*	*	*	*
!	!	!	!	!	!	!	!	!	!	!	!	!LO:LB:g=original	!	!	!	!	!	!	!	!	!	!	!	!	!	!	!	!	!
=28	=28	=28	=28	=28	=28	=28	=28	=28	=28	=28	=28	=28	=28	=28	=28	=28	=28	=28	=28	=28	=28	=28	=28	=28	=28	=28	=28	=28	=28
8r	.	.	8r	.	8r	.	8r	.	.	8r	.	8r	.	.	8r	.	.	8r	.	8.b-\	-tis-	-ren-	2.ryy	2.ryy	2.ryy	.	.	.	.
8F\	.	.	8f 8c/	.	8a/	.	8F\	o-	.	8f\	o-	8f\	o-	.	8ff\	o-	.	8f\	o-	.	.	.	.	.	.	.	.	.	.
.	.	.	.	.	.	.	.	.	.	.	.	.	.	.	.	.	.	.	.	16a\	-ſi-	.	.	.	.	.	.	.	.
8F\L	.	.	8fL 8c/	.	8a/L	.	8F\	-ra	.	8f\	-ra	8f\	-ra	.	8ff\	-ra	.	8f\	-ra	4a\	-ma	-tum,	.	.	.	.	.	.	.
8F\	.	.	8f 8c/	.	8a/	.	8F\	pro	.	8f\	pro	8f\	pro	.	8ff\	pro	.	8f\	pro	.	.	.	.	.	.	.	.	.	.
8A\	.	.	8f/	.	8cc/	.	8F\	no-	.	8f\	no-	8f\	no-	.	8ff\	no-	.	8f\	no-	4cc\	o-	.	.	.	.	.	.	.	.
8A\J	.	.	8f/J	.	8cc/J	.	8F\	-bis	.	8f\	-bis	8f\	-bis	.	8ff\	-bis	.	8f\	-bis	.	.	.	.	.	.	.	.	.	.
=29	=29	=29	=29	=29	=29	=29	=29	=29	=29	=29	=29	=29	=29	=29	=29	=29	=29	=29	=29	=29	=29	=29	=29	=29	=29	=29	=29	=29	=29
*	*	*	*tremolo	*	*tremolo	*	*	*	*	*	*	*	*	*	*	*	*	*	*	*	*	*	*	*	*	*	*	*	*
!LO:TX:t=P:problem=mixed beam	!	!	!	!	!	!	!LO:TX:a:t=7.	!	!	!LO:TX:a:t=7.	!	!LO:TX:a:t=7.	!	!	!LO:TX:a:t=7.	!	!	!LO:TX:a:t=7.	!	!	!	!	!	!	!	!	!	!	!
8B-\L	3	.	8f/L	.	8dd\L	.	0.r	.	.	0.r	.	0.r	.	.	0.r	.	.	0.r	.	8dd\L	.	.	2.ryy	2.ryy	2.ryy	.	.	.	.
8BB-/J	.	.	8f/	.	8dd\	.	.	.	.	.	.	.	.	.	.	.	.	.	.	8cc\J	.	.	.	.	.	.	.	.	.
*tremolo	*	*	*	*	*	*	*	*	*	*	*	*	*	*	*	*	*	*	*	*	*	*	*	*	*	*	*	*	*
8BB-/L	.	.	8f/	.	8dd\	.	.	.	.	.	.	.	.	.	.	.	.	.	.	4.b-\	.	.	.	.	.	.	.	.	.
8BB-/	.	.	8f/	.	8dd\	.	.	.	.	.	.	.	.	.	.	.	.	.	.	.	.	.	.	.	.	.	.	.	.
8BB-/	.	.	8f/	.	8dd\	.	.	.	.	.	.	.	.	.	.	.	.	.	.	.	.	.	.	.	.	.	.	.	.
8BB-/J	.	.	8f/J	.	8dd\J	.	.	.	.	.	.	.	.	.	.	.	.	.	.	8dd\	.	.	.	.	.	.	.	.	.
=30	=30	=30	=30	=30	=30	=30	=30	=30	=30	=30	=30	=30	=30	=30	=30	=30	=30	=30	=30	=30	=30	=30	=30	=30	=30	=30	=30	=30	=30
8C/L	n 7	.	8g/L	.	8een\L	.	.	.	.	.	.	.	.	.	.	.	.	.	.	8een\L	.	.	2.ryy	2.ryy	2.ryy	.	.	.	.
8C/	.	.	8g/	.	8ee\	.	.	.	.	.	.	.	.	.	.	.	.	.	.	8dd\J	.	.	.	.	.	.	.	.	.
8C/	.	.	8g/	.	8ee\	.	.	.	.	.	.	.	.	.	.	.	.	.	.	4.cc\	.	.	.	.	.	.	.	.	.
8C/	.	.	8g/	.	8ee\	.	.	.	.	.	.	.	.	.	.	.	.	.	.	.	.	.	.	.	.	.	.	.	.
8C/	.	.	8g/	.	8ee\	.	.	.	.	.	.	.	.	.	.	.	.	.	.	.	.	.	.	.	.	.	.	.	.
8C/J	.	.	8g/J	.	8ee\J	.	.	.	.	.	.	.	.	.	.	.	.	.	.	8ee\	.	.	.	.	.	.	.	.	.
!	!	!	!	!	!	!	!	!	!	!	!	!	!	!	!	!	!	!	!	!LO:LB:g=original	!	!	!	!	!	!	!	!	!
=31	=31	=31	=31	=31	=31	=31	=31	=31	=31	=31	=31	=31	=31	=31	=31	=31	=31	=31	=31	=31	=31	=31	=31	=31	=31	=31	=31	=31	=31
8D\L	3	.	8a/L	.	8ff\L	.	.	.	.	.	.	.	.	.	.	.	.	.	.	8ff\L	.	.	2.ryy	2.ryy	2.ryy	0.r	.	0.r	.
8D\	.	.	8a/	.	8ff\	.	.	.	.	.	.	.	.	.	.	.	.	.	.	8een\J	.	.	.	.	.	.	.	.	.
8D\	.	.	8a/	.	8ff\	.	.	.	.	.	.	.	.	.	.	.	.	.	.	4.dd\	.	.	.	.	.	.	.	.	.
8D\	.	.	8a/	.	8ff\	.	.	.	.	.	.	.	.	.	.	.	.	.	.	.	.	.	.	.	.	.	.	.	.
8D\	.	.	8a/	.	8ff\	.	.	.	.	.	.	.	.	.	.	.	.	.	.	.	.	.	.	.	.	.	.	.	.
8D\J	.	.	8a/J	.	8ff\J	.	.	.	.	.	.	.	.	.	.	.	.	.	.	8ff\	.	.	.	.	.	.	.	.	.
!LO:LB:g=original	!	!	!LO:LB:g=original	!	!	!	!	!	!	!	!	!	!	!	!	!	!	!	!	!	!	!	!	!	!	!	!	!	!
=32	=32	=32	=32	=32	=32	=32	=32	=32	=32	=32	=32	=32	=32	=32	=32	=32	=32	=32	=32	=32	=32	=32	=32	=32	=32	=32	=32	=32	=32
8En\L	3	.	8b-/L	.	8gg\L	.	.	.	.	.	.	.	.	.	.	.	.	.	.	8gg\L	.	.	2.ryy	2.ryy	2.ryy	.	.	.	.
8E\	.	.	8b-/	.	8gg\	.	.	.	.	.	.	.	.	.	.	.	.	.	.	8een\J	.	.	.	.	.	.	.	.	.
8E\	.	.	8b-/	.	8gg\	.	.	.	.	.	.	.	.	.	.	.	.	.	.	4cc\	.	.	.	.	.	.	.	.	.
8E\J	.	.	8b-/J	.	8gg\J	.	.	.	.	.	.	.	.	.	.	.	.	.	.	.	.	.	.	.	.	.	.	.	.
*Xtremolo	*	*	*Xtremolo	*	*Xtremolo	*	*	*	*	*	*	*	*	*	*	*	*	*	*	*	*	*	*	*	*	*	*	*	*
4C/	7	.	4g/	.	4b-\	.	.	.	.	.	.	.	.	.	.	.	.	.	.	4b-\	.	.	.	.	.	.	.	.	.
=33	=33	=33	=33	=33	=33	=33	=33	=33	=33	=33	=33	=33	=33	=33	=33	=33	=33	=33	=33	=33	=33	=33	=33	=33	=33	=33	=33	=33	=33
4F\	3	.	(8f/L	.	(8a\L	.	1.r	.	.	1.r	.	1.r	.	.	1.r	.	.	1.r	.	(8a\L	.	.	2.ryy	2.ryy	2.ryy	.	.	.	.
.	.	.	8g/	.	8b-\	.	.	.	.	.	.	.	.	.	.	.	.	.	.	8b-\	.	.	.	.	.	.	.	.	.
4r	.	.	8a/	.	8cc\	.	.	.	.	.	.	.	.	.	.	.	.	.	.	8cc\	.	.	.	.	.	.	.	.	.
.	.	.	8b-/	.	8dd\	.	.	.	.	.	.	.	.	.	.	.	.	.	.	8dd\	.	.	.	.	.	.	.	.	.
4r	.	.	8g/	.	8een\	.	.	.	.	.	.	.	.	.	.	.	.	.	.	8een\	.	.	.	.	.	.	.	.	.
.	.	.	8a/J)	.	8ff\J)	.	.	.	.	.	.	.	.	.	.	.	.	.	.	8ff\J)	.	.	.	.	.	.	.	.	.
!	!	!	!	!	!LO:LB:g=original	!	!	!	!	!	!	!	!	!	!	!	!	!	!	!	!	!	!	!	!	!	!	!	!
=34	=34	=34	=34	=34	=34	=34	=34	=34	=34	=34	=34	=34	=34	=34	=34	=34	=34	=34	=34	=34	=34	=34	=34	=34	=34	=34	=34	=34	=34
4r	.	.	(4b-/	.	4dd\	.	.	.	.	.	.	.	.	.	.	.	.	.	.	(4dd\	.	.	2.ryy	2.ryy	2.ryy	.	.	.	.
4r	.	.	4a/	.	4cc\	.	.	.	.	.	.	.	.	.	.	.	.	.	.	4cc\	.	.	.	.	.	.	.	.	.
4C/	7	.	4g/)	.	4b-\	.	.	.	.	.	.	.	.	.	.	.	.	.	.	4b-\)	.	.	.	.	.	.	.	.	.
=35	=35	=35	=35	=35	=35	=35	=35	=35	=35	=35	=35	=35	=35	=35	=35	=35	=35	=35	=35	=35	=35	=35	=35	=35	=35	=35	=35	=35	=35
8F\L	3	.	8f/L	.	8a/L	.	2.r	.	.	2.r	.	2.r	.	.	2.r	.	.	2.r	.	8a\	-ra	.	2.ryy	2.ryy	2.ryy	2.r	.	2.r	.
8B-\J	6	.	8g/J	.	8b-/J	.	.	.	.	.	.	.	.	.	.	.	.	.	.	16b-\LL	pro	.	.	.	.	.	.	.	.
.	.	.	.	.	.	.	.	.	.	.	.	.	.	.	.	.	.	.	.	16g\JJ	.	.	.	.	.	.	.	.	.
4c\	4	.	(4f/	.	4a/	.	.	.	.	.	.	.	.	.	.	.	.	.	.	(4f/	no-	.	.	.	.	.	.	.	.
4C/	n 7	.	4en/)	.	4g/	.	.	.	.	.	.	.	.	.	.	.	.	.	.	4en/)	.	.	.	.	.	.	.	.	.
!	!	!	!	!	!	!	!LO:LB:g=original	!	!	!LO:LB:g=original	!	!	!	!	!LO:LB:g=original	!	!	!LO:PB:g=original	!	!	!	!	!	!	!	!	!	!	!
=36	=36	=36	=36	=36	=36	=36	=36	=36	=36	=36	=36	=36	=36	=36	=36	=36	=36	=36	=36	=36	=36	=36	=36	=36	=36	=36	=36	=36	=36
4F\	1	.	4f/	.	4a/	.	4r	.	.	4r	.	4r	.	.	4r	.	.	4r	.	4f/	-bis	.	2.ryy	2.ryy	2.ryy	4r	.	4r	.
4r	.	.	4r	.	4r	.	4r	.	.	4r	.	4r	.	.	4r	.	.	4r	.	(4ff\	o-	.	.	.	.	4r	mf	4r	.
4r	.	.	4r	.	4r	.	4B-\	o-	.	4f\	o-	4b-\	o-	.	4dd\	o-	.	4b-\	o-	4dd\)	.	.	.	.	.	4b-\	.	4dd\	mf
!	!	!	!	!	!	!	!	!	!	!	!	!	!	!	!	!	!	!	!	!LO:LB:g=original	!	!	!	!	!	!	!	!	!
=37	=37	=37	=37	=37	=37	=37	=37	=37	=37	=37	=37	=37	=37	=37	=37	=37	=37	=37	=37	=37	=37	=37	=37	=37	=37	=37	=37	=37	=37
!LO:TX:a:t=1	!	!	!LO:TX:a:t=1	!	!LO:TX:a:t=1	!	!	!	!	!	!	!	!	!	!	!	!	!	!	!	!	!	!	!	!	!	!	!	!
2.r	.	.	2.r	.	2.r	.	8A\	-ra	.	8f\	-ra	8a\	-ra	.	8cc\	-ra	.	8a\	-ra	8cc\	-ra	.	2.ryy	2.ryy	2.ryy	8a\L	.	8cc\L	.
.	.	.	.	.	.	.	8B-\	pro	.	8d\	pro	8g\	pro	.	8b-\	pro	.	8g\	pro	(16dd\LL	pro	.	.	.	.	8g\J	.	8b-\J	.
.	.	.	.	.	.	.	.	.	.	.	.	.	.	.	.	.	.	.	.	16b-\JJ)	.	.	.	.	.	.	.	.	.
.	.	.	.	.	.	.	(4c\	no-	.	(4c\	no-	(4f\	no-	.	(4a\	no-	.	(4f\	no-	(4a\	no-	.	.	.	.	4f/	.	4a\	.
.	.	.	.	.	.	.	4C/)	.	.	4B-\)	.	4en\)	.	.	4g\)	.	.	4en\)	.	4g\)	.	.	.	.	.	4eX/	.	4g\	.
!	!	!	!	!	!	!	!	!	!	!	!	!	!	!	!	!	!	!	!	!	!	!	!	!	!	!	!	!LO:LB:g=original	!
=38	=38	=38	=38	=38	=38	=38	=38	=38	=38	=38	=38	=38	=38	=38	=38	=38	=38	=38	=38	=38	=38	=38	=38	=38	=38	=38	=38	=38	=38
!	!	!LO:DY:rj:t=mf	!	!LO:DY:rj	!LO:TX:b:i:t=dolce	!LO:DY:rj	!	!	!	!	!	!	!	!	!	!	!	!	!	!	!	!	!	!	!	!	!	!	!
8r	.	mf	8r	mf	(4.aa\	mf	4F\	-bis	.	4A\	-bis	4c\	-bis	.	4f/	-bis	.	4c\	-bis	4f/	-bis	.	2.ryy	2.ryy	2.ryy	2.f/	.	2.a\	.
8F\	3	.	8a 8f/	.	.	.	.	.	.	.	.	.	.	.	.	.	.	.	.	.	.	.	.	.	.	.	.	.	.
*tremolo	*	*	*tremolo	*	*	*	*	*	*	*	*	*	*	*	*	*	*	*	*	*	*	*	*	*	*	*	*	*	*
8F\L	.	.	8a 8f/L	.	.	.	4r	.	.	4r	.	4r	.	.	4r	.	.	4r	.	4r	.	.	.	.	.	.	.	.	.
8F\	.	.	8a 8f/	.	16bb-\LL	.	.	.	.	.	.	.	.	.	.	.	.	.	.	.	.	.	.	.	.	.	.	.	.
.	.	.	.	.	16aa\JJ)	.	.	.	.	.	.	.	.	.	.	.	.	.	.	.	.	.	.	.	.	.	.	.	.
8F\	.	.	8a 8f/	.	8gg\L	.	4r	.	.	4r	.	4r	.	.	4r	.	.	4r	.	4r	.	.	.	.	.	.	.	.	.
8F\J	.	.	8a 8f/J	.	8aa\J	.	.	.	.	.	.	.	.	.	.	.	.	.	.	.	.	.	.	.	.	.	.	.	.
*Xtremolo	*	*	*Xtremolo	*	*	*	*	*	*	*	*	*	*	*	*	*	*	*	*	*	*	*	*	*	*	*	*	*	*
!	!	!	!	!	!	!	!	!	!	!	!	!	!	!	!	!	!	!	!	!	!	!	!	!	!	!LO:LB:g=original	!	!	!
=39	=39	=39	=39	=39	=39	=39	=39	=39	=39	=39	=39	=39	=39	=39	=39	=39	=39	=39	=39	=39	=39	=39	=39	=39	=39	=39	=39	=39	=39
!	!	!	!	!	!	!	!LO:TX:a:t=10.	!	!	!LO:TX:a:t=10.	!	!LO:TX:a:t=10.	!	!	!LO:TX:a:t=10.	!	!	!LO:TX:a:t=10.	!	!LO:TX:a:t=9.	!	!	!	!	!	!	!	!	!
8r	.	.	8r	.	(8ccc\L	.	0.r	.	.	0.r	.	0.r	.	.	0.r	.	.	0.r	.	0.r	.	.	2.ryy	2.ryy	2.ryy	2.g/	.	2.b-\	.
8C/	5	.	8b- 8g/	.	8bb-\J)	.	.	.	.	.	.	.	.	.	.	.	.	.	.	.	.	.	.	.	.	.	.	.	.
*tremolo	*	*	*tremolo	*	*	*	*	*	*	*	*	*	*	*	*	*	*	*	*	*	*	*	*	*	*	*	*	*	*
8C/L	.	.	8b- 8g/L	.	4gg\	.	.	.	.	.	.	.	.	.	.	.	.	.	.	.	.	.	.	.	.	.	.	.	.
8C/	.	.	8b- 8g/	.	.	.	.	.	.	.	.	.	.	.	.	.	.	.	.	.	.	.	.	.	.	.	.	.	.
8C/	.	.	8b- 8g/	.	4r	.	.	.	.	.	.	.	.	.	.	.	.	.	.	.	.	.	.	.	.	.	.	.	.
8C/J	.	.	8b- 8g/J	.	.	.	.	.	.	.	.	.	.	.	.	.	.	.	.	.	.	.	.	.	.	.	.	.	.
*Xtremolo	*	*	*Xtremolo	*	*	*	*	*	*	*	*	*	*	*	*	*	*	*	*	*	*	*	*	*	*	*	*	*	*
=40	=40	=40	=40	=40	=40	=40	=40	=40	=40	=40	=40	=40	=40	=40	=40	=40	=40	=40	=40	=40	=40	=40	=40	=40	=40	=40	=40	=40	=40
8r	.	.	8r	.	(4.bb-\	.	.	.	.	.	.	.	.	.	.	.	.	.	.	.	.	.	2.ryy	2.ryy	2.ryy	2.g/	.	2.b-\	.
8C/	7	.	8b- 8g/	.	.	.	.	.	.	.	.	.	.	.	.	.	.	.	.	.	.	.	.	.	.	.	.	.	.
*tremolo	*	*	*tremolo	*	*	*	*	*	*	*	*	*	*	*	*	*	*	*	*	*	*	*	*	*	*	*	*	*	*
8C/L	.	.	8b- 8g/L	.	.	.	.	.	.	.	.	.	.	.	.	.	.	.	.	.	.	.	.	.	.	.	.	.	.
8C/	.	.	8b- 8g/	.	16ccc\LL	.	.	.	.	.	.	.	.	.	.	.	.	.	.	.	.	.	.	.	.	.	.	.	.
.	.	.	.	.	16bb-\JJ)	.	.	.	.	.	.	.	.	.	.	.	.	.	.	.	.	.	.	.	.	.	.	.	.
8C/	.	.	8b- 8g/	.	8aa\L	.	.	.	.	.	.	.	.	.	.	.	.	.	.	.	.	.	.	.	.	.	.	.	.
8C/J	.	.	8b- 8g/J	.	8bb-\J	.	.	.	.	.	.	.	.	.	.	.	.	.	.	.	.	.	.	.	.	.	.	.	.
*Xtremolo	*	*	*Xtremolo	*	*	*	*	*	*	*	*	*	*	*	*	*	*	*	*	*	*	*	*	*	*	*	*	*	*
=41	=41	=41	=41	=41	=41	=41	=41	=41	=41	=41	=41	=41	=41	=41	=41	=41	=41	=41	=41	=41	=41	=41	=41	=41	=41	=41	=41	=41	=41
*	*	*	*	*	*	*	*	*	*	*	*	*	*	*	*	*	*	*	*	*	*	*	*	*	*	*2\right	*	*	*
8r	.	.	8r	.	(8ddd\L	.	.	.	.	.	.	.	.	.	.	.	.	.	.	.	.	.	2.ryy	2.ryy	2.ryy	2.a\	.	2.cc\	.
8F\	5	.	8a 8f/	.	8ccc\J)	.	.	.	.	.	.	.	.	.	.	.	.	.	.	.	.	.	.	.	.	.	.	.	.
*tremolo	*	*	*tremolo	*	*	*	*	*	*	*	*	*	*	*	*	*	*	*	*	*	*	*	*	*	*	*	*	*	*
8F\L	.	.	8a 8f/L	.	4aa\	.	.	.	.	.	.	.	.	.	.	.	.	.	.	.	.	.	.	.	.	.	.	.	.
8F\	.	.	8a 8f/	.	.	.	.	.	.	.	.	.	.	.	.	.	.	.	.	.	.	.	.	.	.	.	.	.	.
8F\	.	.	8a 8f/	.	4r	.	.	.	.	.	.	.	.	.	.	.	.	.	.	.	.	.	.	.	.	.	.	.	.
8F\J	.	.	8a 8f/J	.	.	.	.	.	.	.	.	.	.	.	.	.	.	.	.	.	.	.	.	.	.	.	.	.	.
*Xtremolo	*	*	*Xtremolo	*	*	*	*	*	*	*	*	*	*	*	*	*	*	*	*	*	*	*	*	*	*	*	*	*	*
=42	=42	=42	=42	=42	=42	=42	=42	=42	=42	=42	=42	=42	=42	=42	=42	=42	=42	=42	=42	=42	=42	=42	=42	=42	=42	=42	=42	=42	=42
8r	.	.	8r	.	2ff\	.	.	.	.	.	.	.	.	.	.	.	.	.	.	.	.	.	2.ryy	2.ryy	2.ryy	2.b-\	.	2.dd\	.
8F\	6_ 4_	.	8b- 8d/	.	.	.	.	.	.	.	.	.	.	.	.	.	.	.	.	.	.	.	.	.	.	.	.	.	.
*tremolo	*	*	*tremolo	*	*	*	*	*	*	*	*	*	*	*	*	*	*	*	*	*	*	*	*	*	*	*	*	*	*
8F\L	.	.	8b- 8d/L	.	.	.	.	.	.	.	.	.	.	.	.	.	.	.	.	.	.	.	.	.	.	.	.	.	.
8F\	.	.	8b- 8d/	.	.	.	.	.	.	.	.	.	.	.	.	.	.	.	.	.	.	.	.	.	.	.	.	.	.
8F\	.	.	8b- 8d/	.	(8bb-\L	.	.	.	.	.	.	.	.	.	.	.	.	.	.	.	.	.	.	.	.	.	.	.	.
8F\J	.	.	8b- 8d/J	.	8ddd\J)	.	.	.	.	.	.	.	.	.	.	.	.	.	.	.	.	.	.	.	.	.	.	.	.
*Xtremolo	*	*	*Xtremolo	*	*	*	*	*	*	*	*	*	*	*	*	*	*	*	*	*	*	*	*	*	*	*	*	*	*
!	!	!	!LO:LB:g=original	!	!LO:LB:g=original	!	!	!	!	!	!	!	!	!	!	!	!	!	!	!	!	!	!	!	!	!	!	!	!
=43	=43	=43	=43	=43	=43	=43	=43	=43	=43	=43	=43	=43	=43	=43	=43	=43	=43	=43	=43	=43	=43	=43	=43	=43	=43	=43	=43	=43	=43
8r	x	.	8r	.	(8ccc\L	.	0.r	.	.	0.r	.	0.r	.	.	0.r	.	.	0.r	.	0.r	.	.	2.ryy	2.ryy	2.ryy	2.a\	.	2.cc\	.
8F\	5_ 3_	.	8a 8f/	.	8aa\J)	.	.	.	.	.	.	.	.	.	.	.	.	.	.	.	.	.	.	.	.	.	.	.	.
*tremolo	*	*	*tremolo	*	*	*	*	*	*	*	*	*	*	*	*	*	*	*	*	*	*	*	*	*	*	*	*	*	*
8F\L	.	.	8a 8f/L	.	4ff\	.	.	.	.	.	.	.	.	.	.	.	.	.	.	.	.	.	.	.	.	.	.	.	.
8F\	.	.	8a 8f/	.	.	.	.	.	.	.	.	.	.	.	.	.	.	.	.	.	.	.	.	.	.	.	.	.	.
8F\	.	.	8a 8f/	.	4r	.	.	.	.	.	.	.	.	.	.	.	.	.	.	.	.	.	.	.	.	.	.	.	.
8F\J	.	.	8a 8f/J	.	.	.	.	.	.	.	.	.	.	.	.	.	.	.	.	.	.	.	.	.	.	.	.	.	.
*Xtremolo	*	*	*Xtremolo	*	*	*	*	*	*	*	*	*	*	*	*	*	*	*	*	*	*	*	*	*	*	*	*	*	*
!LO:LB:g=original	!	!	!	!	!	!	!	!	!	!	!	!	!	!	!	!	!	!	!	!	!	!	!	!	!	!	!	!	!
=44	=44	=44	=44	=44	=44	=44	=44	=44	=44	=44	=44	=44	=44	=44	=44	=44	=44	=44	=44	=44	=44	=44	=44	=44	=44	=44	=44	=44	=44
8r	x	.	8r	.	2ff\	.	.	.	.	.	.	.	.	.	.	.	.	.	.	.	.	.	2.ryy	2.ryy	2.ryy	2.b-\	.	2.dd\	.
8F\	6_ 4_	.	8b- 8d/	.	.	.	.	.	.	.	.	.	.	.	.	.	.	.	.	.	.	.	.	.	.	.	.	.	.
*tremolo	*	*	*tremolo	*	*	*	*	*	*	*	*	*	*	*	*	*	*	*	*	*	*	*	*	*	*	*	*	*	*
8F\L	.	.	8b- 8d/L	.	.	.	.	.	.	.	.	.	.	.	.	.	.	.	.	.	.	.	.	.	.	.	.	.	.
8F\	.	.	8b- 8d/	.	.	.	.	.	.	.	.	.	.	.	.	.	.	.	.	.	.	.	.	.	.	.	.	.	.
8F\	.	.	8b- 8d/	.	(8bb-\L	.	.	.	.	.	.	.	.	.	.	.	.	.	.	.	.	.	.	.	.	.	.	.	.
8F\J	.	.	8b- 8d/J	.	8ddd\J)	.	.	.	.	.	.	.	.	.	.	.	.	.	.	.	.	.	.	.	.	.	.	.	.
*Xtremolo	*	*	*Xtremolo	*	*	*	*	*	*	*	*	*	*	*	*	*	*	*	*	*	*	*	*	*	*	*	*	*	*
=45	=45	=45	=45	=45	=45	=45	=45	=45	=45	=45	=45	=45	=45	=45	=45	=45	=45	=45	=45	=45	=45	=45	=45	=45	=45	=45	=45	=45	=45
8r	x	.	8r	.	(8ccc\L	.	.	.	.	.	.	.	.	.	.	.	.	.	.	.	.	.	2.ryy	2.ryy	2.ryy	2.a\	.	2.cc\	.
8F\	5_ 3_	.	8a 8f/	.	8aa\J)	.	.	.	.	.	.	.	.	.	.	.	.	.	.	.	.	.	.	.	.	.	.	.	.
*tremolo	*	*	*tremolo	*	*	*	*	*	*	*	*	*	*	*	*	*	*	*	*	*	*	*	*	*	*	*	*	*	*
8F\L	.	.	8a 8f/L	.	4ff\	.	.	.	.	.	.	.	.	.	.	.	.	.	.	.	.	.	.	.	.	.	.	.	.
8F\	.	.	8a 8f/	.	.	.	.	.	.	.	.	.	.	.	.	.	.	.	.	.	.	.	.	.	.	.	.	.	.
8F\	.	.	8a 8f/	.	4ccc\	.	.	.	.	.	.	.	.	.	.	.	.	.	.	.	.	.	.	.	.	.	.	.	.
8F\J	.	.	8a 8f/J	.	.	.	.	.	.	.	.	.	.	.	.	.	.	.	.	.	.	.	.	.	.	.	.	.	.
*Xtremolo	*	*	*Xtremolo	*	*	*	*	*	*	*	*	*	*	*	*	*	*	*	*	*	*	*	*	*	*	*	*	*	*
=46	=46	=46	=46	=46	=46	=46	=46	=46	=46	=46	=46	=46	=46	=46	=46	=46	=46	=46	=46	=46	=46	=46	=46	=46	=46	=46	=46	=46	=46
4F\	5	.	(16g#X/LL	.	(16bbn\LL	.	.	.	.	.	.	.	.	.	.	.	.	.	.	.	.	.	2.ryy	2.ryy	2.ryy	4a\	.	4cc\	.
.	.	.	16a/	.	16ccc\	.	.	.	.	.	.	.	.	.	.	.	.	.	.	.	.	.	.	.	.	.	.	.	.
.	.	.	16b-/	.	16ddd\	.	.	.	.	.	.	.	.	.	.	.	.	.	.	.	.	.	.	.	.	.	.	.	.
.	.	.	16a/JJ)	.	16ccc\JJ)	.	.	.	.	.	.	.	.	.	.	.	.	.	.	.	.	.	.	.	.	.	.	.	.
4C\	7	.	(8gn/L	.	(8bb-X\L	.	.	.	.	.	.	.	.	.	.	.	.	.	.	.	.	.	.	.	.	4g/	.	4b-\	.
.	.	.	8en/J)	.	8gg\)	.	.	.	.	.	.	.	.	.	.	.	.	.	.	.	.	.	.	.	.	.	.	.	.
4F\	3	.	(8f/L	.	(8aa\	.	.	.	.	.	.	.	.	.	.	.	.	.	.	.	.	.	.	.	.	4f/	.	4a\	.
.	.	.	8c/J)	.	8ff\J)	.	.	.	.	.	.	.	.	.	.	.	.	.	.	.	.	.	.	.	.	.	.	.	.
=47	=47	=47	=47	=47	=47	=47	=47	=47	=47	=47	=47	=47	=47	=47	=47	=47	=47	=47	=47	=47	=47	=47	=47	=47	=47	=47	=47	=47	=47
4C/	6	.	4f/	.	4aa\	.	1.r	.	.	1.r	.	1.r	.	.	1.r	.	.	1.r	.	2.r	.	.	2.ryy	2.ryy	2.ryy	4f/	.	4a\	.
4C/	5	.	4en/	.	4gg\	.	.	.	.	.	.	.	.	.	.	.	.	.	.	.	.	.	.	.	.	8eX|/L	.	8g|\L	.
.	.	.	.	.	.	.	.	.	.	.	.	.	.	.	.	.	.	.	.	.	.	.	.	.	.	(8g/	.	(8b-\	.
!	!	!	!	!LO:DY:t=p.	!	!	!	!	!	!	!	!	!	!	!	!	!	!	!	!	!	!	!	!	!	!	!	!	!
4r	.	p	4r	p	4r	.	.	.	.	.	.	.	.	.	.	.	.	.	.	.	.	.	.	.	.	8f/	.	8a\	.
.	.	.	.	.	.	.	.	.	.	.	.	.	.	.	.	.	.	.	.	.	.	.	.	.	.	8e/J)	.	8g\J)	.
=48	=48	=48	=48	=48	=48	=48	=48	=48	=48	=48	=48	=48	=48	=48	=48	=48	=48	=48	=48	=48	=48	=48	=48	=48	=48	=48	=48	=48	=48
!	!	!	!	!	!	!LO:DY:t=p.	!	!	!	!	!	!	!	!	!	!	!	!	!	!	!	!	!	!	!	!LO:TX:a:t=12.	!	!LO:TX:a:t=12.	!
8r	.	.	8r	.	8r	p	.	.	.	.	.	.	.	.	.	.	.	.	.	4a\	Ma-	Ad	2.ryy	2.ryy	2.ryy	0.r	.	0.r	.
!LO:TX:a:i:t=Solo	!	!	!	!	!	!	!	!	!	!	!	!	!	!	!	!	!	!	!	!	!	!	!	!	!	!	!	!	!
8F\	.	.	8f 8c/	.	8a/	.	.	.	.	.	.	.	.	.	.	.	.	.	.	.	.	.	.	.	.	.	.	.	.
*tremolo	*	*	*tremolo	*	*tremolo	*	*	*	*	*	*	*	*	*	*	*	*	*	*	*	*	*	*	*	*	*	*	*	*
8F\L	.	.	8f 8c/L	.	8a/L	.	.	.	.	.	.	.	.	.	.	.	.	.	.	8a\	-ter	Be-	.	.	.	.	.	.	.
8F\	.	.	8f 8c/	.	8a/	.	.	.	.	.	.	.	.	.	.	.	.	.	.	(16b-\LL	in-	-a-	.	.	.	.	.	.	.
.	.	.	.	.	.	.	.	.	.	.	.	.	.	.	.	.	.	.	.	16a\JJ)	.	.	.	.	.	.	.	.	.
8F\	.	.	8f 8c/	.	8a/	.	.	.	.	.	.	.	.	.	.	.	.	.	.	8g\	-vi-	-tam	.	.	.	.	.	.	.
8F\J	.	.	8f 8c/J	.	8a/J	.	.	.	.	.	.	.	.	.	.	.	.	.	.	8a\	-o-	.	.	.	.	.	.	.	.
*Xtremolo	*	*	*Xtremolo	*	*Xtremolo	*	*	*	*	*	*	*	*	*	*	*	*	*	*	*	*	*	*	*	*	*	*	*	*
=49	=49	=49	=49	=49	=49	=49	=49	=49	=49	=49	=49	=49	=49	=49	=49	=49	=49	=49	=49	=49	=49	=49	=49	=49	=49	=49	=49	=49	=49
8r	.	.	8r	.	8r	.	8r	.	.	8r	.	8r	.	.	8r	.	.	8r	.	(8cc\L	-la-	Vir-	2.ryy	2.ryy	2.ryy	.	.	.	.
8C/	.	.	8en/	.	8b- 8g/	.	8C/	o-	.	8c\	o-	8c\	o-	.	8cc\	o-	.	8c\	o-	8b-\J)	.	-gi-	.	.	.	.	.	.	.
*tremolo	*	*	*tremolo	*	*tremolo	*	*	*	*	*	*	*	*	*	*	*	*	*	*	*	*	*	*	*	*	*	*	*	*
8C/L	.	.	8e/L	.	8b- 8g/L	.	8C/	-ra	.	8c\	-ra	8c\	-ra	.	8cc\	-ra	.	8c\	-ra	4g\	-ta	-nem	.	.	.	.	.	.	.
8C/	.	.	8e/	.	8b- 8g/	.	8C/	pro	.	8c\	pro	8c\	pro	.	8cc\	pro	.	8c\	pro	.	.	.	.	.	.	.	.	.	.
8C/	.	.	8e/	.	8b- 8g/	.	8C/	no-	.	8c\	no-	8c\	no-	.	8cc\	no-	.	8c\	no-	4r	.	.	.	.	.	.	.	.	.
8C/J	.	.	8e/J	.	8b- 8g/J	.	8C/	-bis	.	8c\	-bis	8c\	-bis	.	8cc\	-bis	.	8c\	-bis	.	.	.	.	.	.	.	.	.	.
*Xtremolo	*	*	*Xtremolo	*	*Xtremolo	*	*	*	*	*	*	*	*	*	*	*	*	*	*	*	*	*	*	*	*	*	*	*	*
!	!	!	!	!	!	!	!	!	!	!	!	!LO:LB:g=original	!	!	!	!	!	!	!	!	!	!	!	!	!	!	!	!	!
=50	=50	=50	=50	=50	=50	=50	=50	=50	=50	=50	=50	=50	=50	=50	=50	=50	=50	=50	=50	=50	=50	=50	=50	=50	=50	=50	=50	=50	=50
!	!	!	!	!	!	!	!LO:TX:a:t=1.	!	!	!LO:TX:a:t=1.	!	!LO:TX:t=P:problem=brak taktu nr 50	!	!	!LO:TX:a:t=1	!	!	!LO:TX:a:t=1.	!	!	!	!	!	!	!	!	!	!	!
8r	.	.	8r	.	8r	.	2.r	.	.	2.r	.	2.ryy	.	.	2.r	.	.	2.r	.	4b-\	Ma-	Ma-	2.ryy	2.ryy	2.ryy	.	.	.	.
8C/	.	.	8en/	.	8b- 8g/	.	.	.	.	.	.	.	.	.	.	.	.	.	.	.	.	.	.	.	.	.	.	.	.
*tremolo	*	*	*tremolo	*	*tremolo	*	*	*	*	*	*	*	*	*	*	*	*	*	*	*	*	*	*	*	*	*	*	*	*
8C/L	.	.	8e/L	.	8b- 8g/L	.	.	.	.	.	.	.	.	.	.	.	.	.	.	8b-\	-ter	.	.	.	.	.	.	.	.
8C/	.	.	8e/	.	8b- 8g/	.	.	.	.	.	.	.	.	.	.	.	.	.	.	(16cc\LL	in-	.	.	.	.	.	.	.	.
.	.	.	.	.	.	.	.	.	.	.	.	.	.	.	.	.	.	.	.	16b-\JJ)	.	.	.	.	.	.	.	.	.
8C/	.	.	8e/	.	8b- 8g/	.	.	.	.	.	.	.	.	.	.	.	.	.	.	8a\	-te-	-ri-	.	.	.	.	.	.	.
8C/J	.	.	8e/J	.	8b- 8g/J	.	.	.	.	.	.	.	.	.	.	.	.	.	.	8b-\	-me-	-am	.	.	.	.	.	.	.
*Xtremolo	*	*	*Xtremolo	*	*Xtremolo	*	*	*	*	*	*	*	*	*	*	*	*	*	*	*	*	*	*	*	*	*	*	*	*
!	!	!	!	!	!LO:LB:g=original	!	!	!	!	!	!	!	!	!	!	!	!	!	!	!LO:LB:g=original	!	!	!	!	!	!	!	!	!
=51	=51	=51	=51	=51	=51	=51	=51	=51	=51	=51	=51	=51	=51	=51	=51	=51	=51	=51	=51	=51	=51	=51	=51	=51	=51	=51	=51	=51	=51
8r	.	.	8r	.	8r	.	8r	.	.	8r	.	8r	.	.	8r	.	.	8r	.	8dd\L	-ra-	fu-	2.ryy	2.ryy	2.ryy	.	.	.	.
8F\	.	.	8f 8c/	.	8a/	.	8F\	o-	.	8f\	o-	8f\	o-	.	8ff\	o-	.	8f\	o-	8cc\J	.	.	.	.	.	.	.	.	.
*tremolo	*	*	*tremolo	*	*tremolo	*	*	*	*	*	*	*	*	*	*	*	*	*	*	*	*	*	*	*	*	*	*	*	*
8F\L	.	.	8f 8c/L	.	8a/L	.	8F\	-ra	.	8f\	-ra	8f\	-ra	.	8ff\	-ra	.	8f\	-ra	4a\	-ta	-sis	.	.	.	.	.	.	.
8F\	.	.	8f 8c/	.	8a/	.	8F\	pro	.	8f\	pro	8f\	pro	.	8ff\	pro	.	8f\	pro	.	.	.	.	.	.	.	.	.	.
8F\	.	.	8f 8c/	.	8a/	.	8F\	no-	.	8f\	no-	8f\	no-	.	8ff\	no-	.	8f\	no-	4r	.	.	.	.	.	.	.	.	.
8F\J	.	.	8f 8c/J	.	8a/J	.	8F\	-bis	.	8f\	-bis	8f\	-bis	.	8ff\	-bis	.	8f\	-bis	.	.	.	.	.	.	.	.	.	.
*Xtremolo	*	*	*Xtremolo	*	*Xtremolo	*	*	*	*	*	*	*	*	*	*	*	*	*	*	*	*	*	*	*	*	*	*	*	*
!	!	!	!	!	!	!	!	!	!	!	!	!	!	!	!LO:LB:g=original	!	!	!	!	!	!	!	!	!	!	!	!	!	!
=52	=52	=52	=52	=52	=52	=52	=52	=52	=52	=52	=52	=52	=52	=52	=52	=52	=52	=52	=52	=52	=52	=52	=52	=52	=52	=52	=52	=52	=52
!	!	!	!	!	!	!	!LO:TX:a:t=1.	!	!	!LO:TX:a:t=1.	!	!LO:TX:a:t=1.	!	!	!LO:TX:a:t=1.	!	!	!LO:TX:a:t=1	!	!	!	!	!	!	!	!	!	!	!
8r	.	.	8r	.	8r	.	2.r	.	.	2.r	.	2.r	.	.	2.r	.	.	2.r	.	2f\	Ma-	vi-	2.ryy	2.ryy	2.ryy	0.r	.	0.r	.
8F\	6_ 4_	.	8b-\	.	8dd\	.	.	.	.	.	.	.	.	.	.	.	.	.	.	.	.	.	.	.	.	.	.	.	.
*	*	*	*2\right	*	*	*	*	*	*	*	*	*	*	*	*	*	*	*	*	*	*	*	*	*	*	*	*	*	*
*tremolo	*	*	*tremolo	*	*tremolo	*	*	*	*	*	*	*	*	*	*	*	*	*	*	*	*	*	*	*	*	*	*	*	*
8F\L	.	.	8b-\L	.	8dd\L	.	.	.	.	.	.	.	.	.	.	.	.	.	.	.	.	.	.	.	.	.	.	.	.
8F\	.	.	8b-\	.	8dd\	.	.	.	.	.	.	.	.	.	.	.	.	.	.	.	.	.	.	.	.	.	.	.	.
8F\	.	.	8b-\	.	8dd\	.	.	.	.	.	.	.	.	.	.	.	.	.	.	8b-\	-ter	-si-	.	.	.	.	.	.	.
!	!	!	!	!	!	!	!LO:TX:b:i:t=Volti Cito	!	!	!LO:TX:b:i:t=Volti Cito	!	!	!	!	!	!	!	!	!	!	!	!	!	!	!	!	!	!	!
8F\J	.	.	8b-\J	.	8dd\J	.	.	.	.	.	.	.	.	.	.	.	.	.	.	8dd\	a-	.	.	.	.	.	.	.	.
*Xtremolo	*	*	*Xtremolo	*	*Xtremolo	*	*	*	*	*	*	*	*	*	*	*	*	*	*	*	*	*	*	*	*	*	*	*	*
!	!	!	!LO:LB:g=original	!	!	!	!LO:PB:g=original	!	!	!LO:PB:g=original	!	!	!	!	!	!	!	!LO:LB:g=original	!	!	!	!	!	!	!	!	!	!	!
=53	=53	=53	=53	=53	=53	=53	=53	=53	=53	=53	=53	=53	=53	=53	=53	=53	=53	=53	=53	=53	=53	=53	=53	=53	=53	=53	=53	=53	=53
8r	x	.	8r	.	8r	.	8r	.	.	8r	.	8r	.	.	8r	.	.	8r	.	8.cc\	-ma-	-bi-	2.ryy	2.ryy	2.ryy	.	.	.	.
8F\	5_ 3_	.	8a\	.	8cc\	.	8F\	o-	.	8f\	o-	8f\	o-	.	8ff\	o-	.	8f\	o-	.	.	.	.	.	.	.	.	.	.
.	.	.	.	.	.	.	.	.	.	.	.	.	.	.	.	.	.	.	.	16a\	-bi-	.	.	.	.	.	.	.	.
*tremolo	*	*	*tremolo	*	*tremolo	*	*	*	*	*	*	*	*	*	*	*	*	*	*	*	*	*	*	*	*	*	*	*	*
8F\L	.	.	8a\L	.	8cc\L	.	8F\	-ra	.	8f\	-ra	8f\	-ra	.	8ff\	-ra	.	8f\	-ra	4f/	-lis	-li	.	.	.	.	.	.	.
8F\	.	.	8a\	.	8cc\	.	8F\	pro	.	8f\	pro	8f\	pro	.	8ff\	pro	.	8f\	pro	.	.	.	.	.	.	.	.	.	.
8F\	.	.	8a\	.	8cc\	.	8F\	no-	.	8f\	no-	8f\	no-	.	8ff\	no-	.	8f\	no-	4r	.	.	.	.	.	.	.	.	.
8F\J	.	.	8a\J	.	8cc\J	.	8F\	-bis	.	8f\	-bis	8f\	-bis	.	8ff\	-bis	.	8f\	-bis	.	.	.	.	.	.	.	.	.	.
*Xtremolo	*	*	*Xtremolo	*	*Xtremolo	*	*	*	*	*	*	*	*	*	*	*	*	*	*	*	*	*	*	*	*	*	*	*	*
=54	=54	=54	=54	=54	=54	=54	=54	=54	=54	=54	=54	=54	=54	=54	=54	=54	=54	=54	=54	=54	=54	=54	=54	=54	=54	=54	=54	=54	=54
!	!	!	!	!	!	!	!LO:TX:a:t=1.	!	!	!LO:TX:a:t=1	!	!LO:TX:a:t=1	!	!	!LO:TX:a:t=1	!	!	!LO:TX:a:t=1	!	!	!	!	!	!	!	!	!	!	!
8r	x	.	8r	.	8r	.	2.r	.	.	2.r	.	2.r	.	.	2.r	.	.	2.r	.	4.f/	Ma-	Co-	2.ryy	2.ryy	2.ryy	.	.	.	.
8F\	6 4	.	8b-\	.	8dd\	.	.	.	.	.	.	.	.	.	.	.	.	.	.	.	.	.	.	.	.	.	.	.	.
*tremolo	*	*	*tremolo	*	*tremolo	*	*	*	*	*	*	*	*	*	*	*	*	*	*	*	*	*	*	*	*	*	*	*	*
8F\L	.	.	8b-\L	.	8dd\L	.	.	.	.	.	.	.	.	.	.	.	.	.	.	.	.	.	.	.	.	.	.	.	.
8F\	.	.	8b-\	.	8dd\	.	.	.	.	.	.	.	.	.	.	.	.	.	.	8f/	-ter	-rus	.	.	.	.	.	.	.
8F\	.	.	8b-\	.	8dd\	.	.	.	.	.	.	.	.	.	.	.	.	.	.	8b-\	ad-	ca-	.	.	.	.	.	.	.
8F\J	.	.	8b-\J	.	8dd\J	.	.	.	.	.	.	.	.	.	.	.	.	.	.	8dd\	-mi-	.	.	.	.	.	.	.	.
*Xtremolo	*	*	*Xtremolo	*	*Xtremolo	*	*	*	*	*	*	*	*	*	*	*	*	*	*	*	*	*	*	*	*	*	*	*	*
=55	=55	=55	=55	=55	=55	=55	=55	=55	=55	=55	=55	=55	=55	=55	=55	=55	=55	=55	=55	=55	=55	=55	=55	=55	=55	=55	=55	=55	=55
8r	.	.	8r	.	8r	.	8r	.	.	8r	.	8r	.	.	8r	.	.	8r	.	8.cc\	-ra-	-du-	2.ryy	2.ryy	2.ryy	.	.	.	.
8F\	5 3	.	8a\	.	8cc\	.	8F\	o-	.	8f\	o-	8f\	o-	.	8ff\	o-	.	8f\	o-	.	.	.	.	.	.	.	.	.	.
.	.	.	.	.	.	.	.	.	.	.	.	.	.	.	.	.	.	.	.	16a\	-bi-	.	.	.	.	.	.	.	.
*tremolo	*	*	*tremolo	*	*tremolo	*	*	*	*	*	*	*	*	*	*	*	*	*	*	*	*	*	*	*	*	*	*	*	*
8F\L	.	.	8a\L	.	8cc\L	.	8F\	-ra	.	8f\	-ra	8f\	-ra	.	8ff\	-ra	.	8f\	-ra	4f/	-lis	-ce	.	.	.	.	.	.	.
8F\	.	.	8a\	.	8cc\	.	8F\	pro	.	8f\	pro	8f\	pro	.	8ff\	pro	.	8f\	pro	.	.	.	.	.	.	.	.	.	.
8F\	.	.	8a\	.	8cc\	.	8F\	no-	.	8f\	no-	8f\	no-	.	8ff\	no-	.	8f\	no-	4r	.	.	.	.	.	.	.	.	.
8F\J	.	.	8a\J	.	8cc\J	.	8F\	-bis	.	8f\	-bis	8f\	-bis	.	8ff\	-bis	.	8f\	-bis	.	.	.	.	.	.	.	.	.	.
*Xtremolo	*	*	*Xtremolo	*	*Xtremolo	*	*	*	*	*	*	*	*	*	*	*	*	*	*	*	*	*	*	*	*	*	*	*	*
!LO:LB:g=original	!	!	!	!	!	!	!	!	!	!	!	!	!	!	!	!	!	!	!	!LO:LB:g=original	!	!	!	!	!	!	!	!	!
=56	=56	=56	=56	=56	=56	=56	=56	=56	=56	=56	=56	=56	=56	=56	=56	=56	=56	=56	=56	=56	=56	=56	=56	=56	=56	=56	=56	=56	=56
!	!	!	!	!	!	!	!LO:TX:a:t=1	!	!	!LO:TX:a:t=1	!	!LO:TX:a:t=1	!	!	!LO:TX:a:t=1	!	!	!LO:TX:a:t=1	!	!	!	!	!	!	!	!	!	!	!
8r	.	.	8r	.	8r	.	2.r	.	.	2.r	.	2.r	.	.	2.r	.	.	2.r	.	4.f#X/	Ma-	in	2.ryy	2.ryy	2.ryy	0.r	.	0.r	.
8D\	#_	.	8f#X/	.	8a\	.	.	.	.	.	.	.	.	.	.	.	.	.	.	.	.	.	.	.	.	.	.	.	.
*tremolo	*	*	*tremolo	*	*tremolo	*	*	*	*	*	*	*	*	*	*	*	*	*	*	*	*	*	*	*	*	*	*	*	*
8D\L	.	.	8f#/L	.	8a\L	.	.	.	.	.	.	.	.	.	.	.	.	.	.	.	.	.	.	.	.	.	.	.	.
8D\	.	.	8f#/	.	8a\	.	.	.	.	.	.	.	.	.	.	.	.	.	.	8f#/	-ter	na-	.	.	.	.	.	.	.
8D\	.	.	8f#/	.	8a\	.	.	.	.	.	.	.	.	.	.	.	.	.	.	8a\	cre-	-ta-	.	.	.	.	.	.	.
8D\J	.	.	8f#/J	.	8a\J	.	.	.	.	.	.	.	.	.	.	.	.	.	.	8cc\	-a-	-li	.	.	.	.	.	.	.
*Xtremolo	*	*	*Xtremolo	*	*Xtremolo	*	*	*	*	*	*	*	*	*	*	*	*	*	*	*	*	*	*	*	*	*	*	*	*
=57	=57	=57	=57	=57	=57	=57	=57	=57	=57	=57	=57	=57	=57	=57	=57	=57	=57	=57	=57	=57	=57	=57	=57	=57	=57	=57	=57	=57	=57
8r	x	.	8r	.	8r	.	8r	.	.	8r	.	8r	.	.	8r	.	.	8r	.	(8b-\L	-to-	tu-	2.ryy	2.ryy	2.ryy	.	.	.	.
8G\	3_	.	8d/	.	8b-\	.	8G\	o-	.	8G/	o-	8g\	o-	.	8g\	o-	.	8g\	o-	8a\J)	.	.	.	.	.	.	.	.	.
*tremolo	*	*	*tremolo	*	*tremolo	*	*	*	*	*	*	*	*	*	*	*	*	*	*	*	*	*	*	*	*	*	*	*	*
8G\L	.	.	8d/L	.	8b-\L	.	8G\	-ra	.	8G/	-ra	8g\	-ra	.	8g\	-ra	.	8g\	-ra	4g\	-ris	-o	.	.	.	.	.	.	.
8G\	.	.	8d/	.	8b-\	.	8G\	pro	.	8G/	pro	8g\	pro	.	8g\	pro	.	8g\	pro	.	.	.	.	.	.	.	.	.	.
8G\	.	.	8d/	.	8b-\	.	8G\	no-	.	8G/	no-	8g\	no-	.	8g\	no-	.	8g\	no-	4r	.	.	.	.	.	.	.	.	.
8G\J	.	.	8d/J	.	8b-\J	.	8G\	-bis	.	8G/	-bis	8g\	-bis	.	8g\	-bis	.	8g\	-bis	.	.	.	.	.	.	.	.	.	.
*Xtremolo	*	*	*Xtremolo	*	*Xtremolo	*	*	*	*	*	*	*	*	*	*	*	*	*	*	*	*	*	*	*	*	*	*	*	*
!	!	!	!	!	!	!	!	!	!	!	!	!LO:LB:g=original	!	!	!	!	!	!	!	!	!	!	!	!	!	!	!	!	!
=58	=58	=58	=58	=58	=58	=58	=58	=58	=58	=58	=58	=58	=58	=58	=58	=58	=58	=58	=58	=58	=58	=58	=58	=58	=58	=58	=58	=58	=58
!	!	!	!	!	!	!	!LO:TX:a:t=1.	!	!	!LO:TX:a:t=1	!	!LO:TX:t=P:problem=brak taktu nr 58	!	!	!LO:TX:a:t=1.	!	!	!LO:TX:a:t=1.	!	!	!	!	!	!	!	!	!	!	!
8r	x	.	8r	.	8r	.	2.r	.	.	2.r	.	2.ryy	.	.	2.r	.	.	2.r	.	4.cc\	Ma-	Cae-	2.ryy	2.ryy	2.ryy	.	.	.	.
8Fn\	5_	.	8a/	.	8cc\	.	.	.	.	.	.	.	.	.	.	.	.	.	.	.	.	.	.	.	.	.	.	.	.
*tremolo	*	*	*tremolo	*	*tremolo	*	*	*	*	*	*	*	*	*	*	*	*	*	*	*	*	*	*	*	*	*	*	*	*
8F\L	.	.	8a/L	.	8cc\L	.	.	.	.	.	.	.	.	.	.	.	.	.	.	.	.	.	.	.	.	.	.	.	.
8F\	.	.	8a/	.	8cc\	.	.	.	.	.	.	.	.	.	.	.	.	.	.	8cc\	-ter	-le	.	.	.	.	.	.	.
8F\	.	.	8a/	.	8cc\	.	.	.	.	.	.	.	.	.	.	.	.	.	.	8ee-X\	Sal-	ho-	.	.	.	.	.	.	.
8F\J	.	.	8a/J	.	8cc\J	.	.	.	.	.	.	.	.	.	.	.	.	.	.	8gg\	-va-	-no-	.	.	.	.	.	.	.
*Xtremolo	*	*	*Xtremolo	*	*Xtremolo	*	*	*	*	*	*	*	*	*	*	*	*	*	*	*	*	*	*	*	*	*	*	*	*
!	!	!	!	!	!LO:LB:g=original	!	!	!	!	!	!	!	!	!	!LO:LB:g=original	!	!	!LO:LB:g=original	!	!	!	!	!	!	!	!	!	!	!
=59	=59	=59	=59	=59	=59	=59	=59	=59	=59	=59	=59	=59	=59	=59	=59	=59	=59	=59	=59	=59	=59	=59	=59	=59	=59	=59	=59	=59	=59
8r	X	.	8r	.	8r	.	8r	.	.	8r	.	8r	.	.	8r	.	.	8r	.	8ff\L	-to-	-ra-	2.ryy	2.ryy	2.ryy	.	.	.	.
8B-\	3	.	8fn/	.	8dd\	.	8B-\	o-	.	8B-\	o-	8b-\	o-	.	8b-\	o-	.	8b-\	o-	8ee-\J	.	.	.	.	.	.	.	.	.
*tremolo	*	*	*tremolo	*	*tremolo	*	*	*	*	*	*	*	*	*	*	*	*	*	*	*	*	*	*	*	*	*	*	*	*
8B-\L	.	.	8f/L	.	8dd\L	.	8B-\	-ra	.	8B-\	-ra	8b-\	-ra	.	8b-\	-ra	.	8b-\	-ra	4dd\	-ris	-te	.	.	.	.	.	.	.
8B-\	.	.	8f/	.	8dd\	.	8B-\	pro	.	8B-\	pro	8b-\	pro	.	8b-\	pro	.	8b-\	pro	.	.	.	.	.	.	.	.	.	.
8B-\	.	.	8f/	.	8dd\	.	8B-\	no-	.	8B-\	no-	8b-\	no-	.	8b-\	no-	.	8b-\	no-	(4ff\	o-	.	.	.	.	.	.	.	.
8B-\J	.	.	8f/J	.	8dd\J	.	8B-\	-bis	.	8B-\	-bis	8b-\	-bis	.	8b-\	-bis	.	8b-\	-bis	.	.	.	.	.	.	.	.	.	.
*Xtremolo	*	*	*Xtremolo	*	*Xtremolo	*	*	*	*	*	*	*	*	*	*	*	*	*	*	*	*	*	*	*	*	*	*	*	*
!	!	!	!	!	!	!	!LO:LB:g=original	!	!	!LO:LB:g=original	!	!	!	!	!	!	!	!	!	!	!	!	!	!	!	!	!	!	!
=60	=60	=60	=60	=60	=60	=60	=60	=60	=60	=60	=60	=60	=60	=60	=60	=60	=60	=60	=60	=60	=60	=60	=60	=60	=60	=60	=60	=60	=60
!	!	!	!	!	!	!	!	!	!	!	!	!	!	!	!	!	!	!	!	!	!	!	!	!	!	!	!	!	!LO:DY:rj
8B-\	5 3	.	8r	.	8r	.	4B-\	o-	.	(4B-\	o-	4dd\	o-	.	4ff\	o-	.	4dd\	o-	8ff\L	.	.	2.ryy	2.ryy	2.ryy	4dd\	.	4ff\	p
8r	.	.	8d/	.	8f/	.	.	.	.	.	.	.	.	.	.	.	.	.	.	16gg\L	.	.	.	.	.	.	.	.	.
.	.	.	.	.	.	.	.	.	.	.	.	.	.	.	.	.	.	.	.	16ff\JJ)	.	.	.	.	.	.	.	.	.
8A\	5 3	.	8r	.	8r	.	4A\	-ra	.	4F\)	.	4cc\	-ra	.	4ee-\	-ra	.	4cc\	-ra	4ee-X\	-ra	.	.	.	.	4cc\	.	4ee-\	.
8r	.	.	8c/	.	8e-X/	.	.	.	.	.	.	.	.	.	.	.	.	.	.	.	.	.	.	.	.	.	.	.	.
8B-\	3	.	8r	.	8r	.	4B-\	pro	.	8B-\	-ra	4b-\	pro	.	4dd\	pro	.	4b-\	pro	4dd\	pro	.	.	.	.	4b-\	.	4dd\	.
8r	.	.	8B-/	.	8d/	.	.	.	.	8d\	pro	.	.	.	.	.	.	.	.	.	.	.	.	.	.	.	.	.	.
!	!	!	!	!	!	!	!	!	!	!	!	!	!	!	!	!	!	!	!	!LO:LB:g=original	!	!	!	!	!	!	!	!	!
=61	=61	=61	=61	=61	=61	=61	=61	=61	=61	=61	=61	=61	=61	=61	=61	=61	=61	=61	=61	=61	=61	=61	=61	=61	=61	=61	=61	=61	=61
4F\	6	.	4B-/	.	4d/	.	4F\	no-	.	4f\	no-	4b-\	no-	.	4dd\	no-	.	4b-\	no-	4dd\	no-	.	2.ryy	2.ryy	2.ryy	4b-\	.	4dd\	.
4FF/	5	.	4A/	.	4c/	.	4FF/	-bis	.	4F/	-bis	4a\	-bis	.	4cc\	-bis	.	4a\	-bis	4cc\	-bis	.	.	.	.	4a\	.	4cc\	.
4r	.	.	4r	.	4r	.	4r	.	.	4r	.	4r	.	.	4r	.	.	4r	.	4r	.	.	.	.	.	4r	.	4r	.
!	!	!	!	!	!	!	!	!	!	!	!	!	!	!	!	!	!	!	!	!	!	!	!	!	!	!	!	!LO:LB:g=original	!
=62	=62	=62	=62	=62	=62	=62	=62	=62	=62	=62	=62	=62	=62	=62	=62	=62	=62	=62	=62	=62	=62	=62	=62	=62	=62	=62	=62	=62	=62
!LO:TX:a:i:t=Solo	!	!	!	!	!	!	!LO:TX:a:t=1.	!	!	!LO:TX:a:t=1.	!	!LO:TX:a:t=1.	!	!	!LO:TX:a:t=1	!	!	!LO:TX:a:t=1.	!	!	!	!	!	!	!	!LO:TX:a:t=25.	!	!LO:TX:a:t=25.	!
8r	.	.	8r	.	8r	.	2.r	.	.	2.r	.	2.r	.	.	2.r	.	.	2.r	.	4.dd\	Vir-	U-	2.ryy	2.ryy	2.ryy	0.r	.	0.r	.
8B-\	.	.	8d/	.	8f/	.	.	.	.	.	.	.	.	.	.	.	.	.	.	.	.	.	.	.	.	.	.	.	.
*tremolo	*	*	*tremolo	*	*tremolo	*	*	*	*	*	*	*	*	*	*	*	*	*	*	*	*	*	*	*	*	*	*	*	*
8B-\L	.	.	8d/L	.	8f/L	.	.	.	.	.	.	.	.	.	.	.	.	.	.	.	.	.	.	.	.	.	.	.	.
8B-\	.	.	8d/	.	8f/	.	.	.	.	.	.	.	.	.	.	.	.	.	.	16ee-\LL	-go	.	.	.	.	.	.	.	.
.	.	.	.	.	.	.	.	.	.	.	.	.	.	.	.	.	.	.	.	16dd\JJ	.	.	.	.	.	.	.	.	.
8B-\	.	.	8d/	.	8f/	.	.	.	.	.	.	.	.	.	.	.	.	.	.	8cc\	pru-	-ni-	.	.	.	.	.	.	.
8B-\J	.	.	8d/J	.	8f/J	.	.	.	.	.	.	.	.	.	.	.	.	.	.	8dd\	-den-	.	.	.	.	.	.	.	.
*Xtremolo	*	*	*Xtremolo	*	*Xtremolo	*	*	*	*	*	*	*	*	*	*	*	*	*	*	*	*	*	*	*	*	*	*	*	*
=63	=63	=63	=63	=63	=63	=63	=63	=63	=63	=63	=63	=63	=63	=63	=63	=63	=63	=63	=63	=63	=63	=63	=63	=63	=63	=63	=63	=63	=63
!	!	!	!	!	!	!	!	!	!	!	!	!	!	!	!	!	!	!	!	!LO:N:vis=8	!	!	!	!	!	!	!	!	!
8r	.	.	8r	.	8r	.	8r	.	.	8r	.	8r	.	.	8r	.	.	8r	.	8.ff\	-tis-	-ge-	2.ryy	2.ryy	2.ryy	.	.	.	.
8F\	.	.	8e- 8c/	.	8f/	.	8F\	o-	.	8F/	o-	8f\	o-	.	8ff\	o-	.	8f\	o-	.	.	.	.	.	.	.	.	.	.
.	.	.	.	.	.	.	.	.	.	.	.	.	.	.	.	.	.	.	.	16ee-\	-ſi-	-ni-	.	.	.	.	.	.	.
*tremolo	*	*	*tremolo	*	*tremolo	*	*	*	*	*	*	*	*	*	*	*	*	*	*	*	*	*	*	*	*	*	*	*	*
8F\L	.	.	8e- 8c/L	.	8f/L	.	8F\	-ra	.	8F/	-ra	8f\	-ra	.	8ff\	-ra	.	8f\	-ra	4dd\	-ma	-te	.	.	.	.	.	.	.
8F\	.	.	8e- 8c/	.	8f/	.	8F\	pro	.	8F/	pro	8f\	pro	.	8ff\	pro	.	8f\	pro	.	.	.	.	.	.	.	.	.	.
8F\	.	.	8e- 8c/	.	8f/	.	8F\	no-	.	8F/	no-	8f\	no-	.	8ff\	no-	.	8f\	no-	4r	.	.	.	.	.	.	.	.	.
8F\J	.	.	8e- 8c/J	.	8f/J	.	8F\	-bis	.	8F/	-bis	8f\	-bis	.	8ff\	-bis	.	8f\	-bis	.	.	.	.	.	.	.	.	.	.
*Xtremolo	*	*	*Xtremolo	*	*Xtremolo	*	*	*	*	*	*	*	*	*	*	*	*	*	*	*	*	*	*	*	*	*	*	*	*
!	!	!	!LO:LB:g=original	!	!	!	!	!	!	!	!	!	!	!	!	!	!	!	!	!	!	!	!	!	!	!	!	!	!
=64	=64	=64	=64	=64	=64	=64	=64	=64	=64	=64	=64	=64	=64	=64	=64	=64	=64	=64	=64	=64	=64	=64	=64	=64	=64	=64	=64	=64	=64
!	!	!	!	!	!	!	!LO:TX:a:t=1	!	!	!LO:TX:a:t=1.	!	!LO:TX:a:t=1.	!	!	!LO:TX:a:t=1.	!	!	!LO:TX:a:t=1.	!	!	!	!	!	!	!	!	!	!	!
8r	.	.	8r	.	8r	.	2.r	.	.	2.r	.	2.r	.	.	2.r	.	.	2.r	.	4.ee-\	Vir-	So-	2.ryy	2.ryy	2.ryy	.	.	.	.
8F\	.	.	8e- 8c/	.	8f/	.	.	.	.	.	.	.	.	.	.	.	.	.	.	.	.	.	.	.	.	.	.	.	.
*tremolo	*	*	*tremolo	*	*tremolo	*	*	*	*	*	*	*	*	*	*	*	*	*	*	*	*	*	*	*	*	*	*	*	*
8F\L	.	.	8e- 8c/L	.	8f/L	.	.	.	.	.	.	.	.	.	.	.	.	.	.	.	.	.	.	.	.	.	.	.	.
8F\	.	.	8e- 8c/	.	8f/	.	.	.	.	.	.	.	.	.	.	.	.	.	.	16ff\LL	-go	.	.	.	.	.	.	.	.
.	.	.	.	.	.	.	.	.	.	.	.	.	.	.	.	.	.	.	.	16ee-\JJ	.	.	.	.	.	.	.	.	.
8F\	.	.	8e- 8c/	.	8f/	.	.	.	.	.	.	.	.	.	.	.	.	.	.	8dd\	pre-	-la-	.	.	.	.	.	.	.
8F\J	.	.	8e- 8c/J	.	8f/J	.	.	.	.	.	.	.	.	.	.	.	.	.	.	8ee-\	-di-	.	.	.	.	.	.	.	.
*Xtremolo	*	*	*Xtremolo	*	*Xtremolo	*	*	*	*	*	*	*	*	*	*	*	*	*	*	*	*	*	*	*	*	*	*	*	*
=65	=65	=65	=65	=65	=65	=65	=65	=65	=65	=65	=65	=65	=65	=65	=65	=65	=65	=65	=65	=65	=65	=65	=65	=65	=65	=65	=65	=65	=65
8r	.	.	8r	.	8r	.	8r	.	.	8r	.	8r	.	.	8r	.	.	8r	.	8gg\L	-can-	-ti-	2.ryy	2.ryy	2.ryy	.	.	.	.
8BB-/	.	.	8d/	.	8f/	.	8B-\	o-	.	8B-\	o-	8b-\	o-	.	8b-\	o-	.	8b-\	o-	8ff\J	.	.	.	.	.	.	.	.	.
*tremolo	*	*	*tremolo	*	*tremolo	*	*	*	*	*	*	*	*	*	*	*	*	*	*	*	*	*	*	*	*	*	*	*	*
8BB-/L	.	.	8d/L	.	8f/L	.	8B-\	-ra	.	8B-\	-ra	8b-\	-ra	.	8b-\	-ra	.	8b-\	-ra	4dd\	-da	-um	.	.	.	.	.	.	.
8BB-/	.	.	8d/	.	8f/	.	8B-\	pro	.	8B-\	pro	8b-\	pro	.	8b-\	pro	.	8b-\	pro	.	.	.	.	.	.	.	.	.	.
8BB-/	.	.	8d/	.	8f/	.	8B-\	no-	.	8B-\	no-	8b-\	no-	.	8b-\	no-	.	8b-\	no-	4r	.	.	.	.	.	.	.	.	.
8BB-/J	.	.	8d/J	.	8f/J	.	8B-\	-bis	.	8B-\	-bis	8b-\	-bis	.	8b-\	-bis	.	8b-\	-bis	.	.	.	.	.	.	.	.	.	.
*Xtremolo	*	*	*Xtremolo	*	*Xtremolo	*	*	*	*	*	*	*	*	*	*	*	*	*	*	*	*	*	*	*	*	*	*	*	*
!LO:LB:g=original	!	!	!	!	!	!	!	!	!	!	!	!LO:LB:g=original	!	!	!LO:LB:g=original	!	!	!LO:LB:g=original	!	!LO:LB:g=original	!	!	!	!	!	!	!	!	!
=66	=66	=66	=66	=66	=66	=66	=66	=66	=66	=66	=66	=66	=66	=66	=66	=66	=66	=66	=66	=66	=66	=66	=66	=66	=66	=66	=66	=66	=66
!	!	!	!	!	!	!	!LO:TX:a:t=1.	!	!	!LO:TX:a:t=1	!	!LO:TX:a:t=1.	!	!	!LO:TX:a:t=1.	!	!	!LO:TX:a:t=1.	!	!	!	!	!	!	!	!	!	!	!
8r	.	.	8r	.	8r	.	2.r	.	.	2.r	.	2.r	.	.	2.r	.	.	2.r	.	2b-\	Vir-	gau-	2.ryy	2.ryy	2.ryy	0.r	.	0.r	.
8BB-/	6_ 4_	.	8e-/	.	8g/	.	.	.	.	.	.	.	.	.	.	.	.	.	.	.	.	.	.	.	.	.	.	.	.
*tremolo	*	*	*tremolo	*	*tremolo	*	*	*	*	*	*	*	*	*	*	*	*	*	*	*	*	*	*	*	*	*	*	*	*
8BB-/L	.	.	8e-/L	.	8g/L	.	.	.	.	.	.	.	.	.	.	.	.	.	.	.	.	.	.	.	.	.	.	.	.
8BB-/	.	.	8e-/	.	8g/	.	.	.	.	.	.	.	.	.	.	.	.	.	.	.	.	.	.	.	.	.	.	.	.
8BB-/	.	.	8e-/	.	8g/	.	.	.	.	.	.	.	.	.	.	.	.	.	.	(8ee-\L	-go	-di-	.	.	.	.	.	.	.
8BB-/J	.	.	8e-/J	.	8g/J	.	.	.	.	.	.	.	.	.	.	.	.	.	.	8gg\J)	.	-um	.	.	.	.	.	.	.
*Xtremolo	*	*	*Xtremolo	*	*Xtremolo	*	*	*	*	*	*	*	*	*	*	*	*	*	*	*	*	*	*	*	*	*	*	*	*
=67	=67	=67	=67	=67	=67	=67	=67	=67	=67	=67	=67	=67	=67	=67	=67	=67	=67	=67	=67	=67	=67	=67	=67	=67	=67	=67	=67	=67	=67
8r	x	.	8r	.	8r	.	8r	.	.	8r	.	8r	.	.	8r	.	.	8r	.	(8ff\L	po-	tu-	2.ryy	2.ryy	2.ryy	.	.	.	.
8BB-/	5 3	.	8d/	.	8f/	.	8B-\	o-	.	8B-\	o-	8b-\	o-	.	8b-\	o-	.	8b-\	o-	8dd\J)	.	-o-	.	.	.	.	.	.	.
*tremolo	*	*	*tremolo	*	*tremolo	*	*	*	*	*	*	*	*	*	*	*	*	*	*	*	*	*	*	*	*	*	*	*	*
8BB-/L	.	.	8d/L	.	8f/L	.	8B-\	-ra	.	8B-\	-ra	8b-\	-ra	.	8b-\	-ra	.	8b-\	-ra	4b-\	-tens	-rum	.	.	.	.	.	.	.
8BB-/	.	.	8d/	.	8f/	.	8B-\	pro	.	8B-\	pro	8b-\	pro	.	8b-\	pro	.	8b-\	pro	.	.	.	.	.	.	.	.	.	.
8BB-/	.	.	8d/	.	8f/	.	8B-\	no-	.	8B-\	no-	8b-\	no-	.	8b-\	no-	.	8b-\	no-	4r	.	.	.	.	.	.	.	.	.
8BB-/J	.	.	8d/J	.	8f/J	.	8B-\	-bis	.	8B-\	-bis	8b-\	-bis	.	8b-\	-bis	.	8b-\	-bis	.	.	.	.	.	.	.	.	.	.
*Xtremolo	*	*	*Xtremolo	*	*Xtremolo	*	*	*	*	*	*	*	*	*	*	*	*	*	*	*	*	*	*	*	*	*	*	*	*
!	!	!	!	!	!LO:LB:g=original	!	!LO:LB:g=original	!	!	!LO:LB:g=original	!	!	!	!	!	!	!	!	!	!	!	!	!	!	!	!	!	!	!
=68	=68	=68	=68	=68	=68	=68	=68	=68	=68	=68	=68	=68	=68	=68	=68	=68	=68	=68	=68	=68	=68	=68	=68	=68	=68	=68	=68	=68	=68
!	!	!	!	!	!	!	!LO:TX:a:t=1	!	!	!LO:TX:a:t=1	!	!LO:TX:a:t=1.	!	!	!LO:TX:a:t=1	!	!	!LO:TX:a:t=1.	!	!	!	!	!	!	!	!	!	!	!
8r	.	.	8r	.	8r	.	2.r	.	.	2.r	.	2.r	.	.	2.r	.	.	2.r	.	2b-\	Vir-	Pa-	2.ryy	2.ryy	2.ryy	.	.	.	.
8BB-/	6 4	.	8e-/	.	8g/	.	.	.	.	.	.	.	.	.	.	.	.	.	.	.	.	.	.	.	.	.	.	.	.
*tremolo	*	*	*tremolo	*	*tremolo	*	*	*	*	*	*	*	*	*	*	*	*	*	*	*	*	*	*	*	*	*	*	*	*
8BB-/L	.	.	8e-/L	.	8g/L	.	.	.	.	.	.	.	.	.	.	.	.	.	.	.	.	.	.	.	.	.	.	.	.
8BB-/	.	.	8e-/	.	8g/	.	.	.	.	.	.	.	.	.	.	.	.	.	.	.	.	.	.	.	.	.	.	.	.
8BB-/	.	.	8e-/	.	8g/	.	.	.	.	.	.	.	.	.	.	.	.	.	.	(8ee-\L	-go	.	.	.	.	.	.	.	.
8BB-/J	.	.	8e-/J	.	8g/J	.	.	.	.	.	.	.	.	.	.	.	.	.	.	8gg\J)	.	.	.	.	.	.	.	.	.
*Xtremolo	*	*	*Xtremolo	*	*Xtremolo	*	*	*	*	*	*	*	*	*	*	*	*	*	*	*	*	*	*	*	*	*	*	*	*
=69	=69	=69	=69	=69	=69	=69	=69	=69	=69	=69	=69	=69	=69	=69	=69	=69	=69	=69	=69	=69	=69	=69	=69	=69	=69	=69	=69	=69	=69
8r	.	.	8r	.	8r	.	8r	.	.	8r	.	8r	.	.	8r	.	.	8r	.	8.ff\L	cle-	-ren-	2.ryy	2.ryy	2.ryy	.	.	.	.
8BB-/	5 3	.	8d/	.	8f/	.	8B-\	o-	.	8B-\	o-	8b-\	o-	.	8b-\	o-	.	8b-\	o-	.	.	.	.	.	.	.	.	.	.
.	.	.	.	.	.	.	.	.	.	.	.	.	.	.	.	.	.	.	.	16dd\Jk	.	.	.	.	.	.	.	.	.
*tremolo	*	*	*tremolo	*	*tremolo	*	*	*	*	*	*	*	*	*	*	*	*	*	*	*	*	*	*	*	*	*	*	*	*
8BB-/L	.	.	8d/L	.	8f/L	.	8B-\	-ra	.	8B-\	-ra	8b-\	-ra	.	8b-\	-ra	.	8b-\	-ra	4b-\	-mens	-tum	.	.	.	.	.	.	.
8BB-/	.	.	8d/	.	8f/	.	8B-\	pro	.	8B-\	pro	8b-\	pro	.	8b-\	pro	.	8b-\	pro	.	.	.	.	.	.	.	.	.	.
8BB-/	.	.	8d/	.	8f/	.	8B-\	no-	.	8B-\	no-	8b-\	no-	.	8b-\	no-	.	8b-\	no-	4ff\	o-	.	.	.	.	.	.	.	.
8BB-/J	.	.	8d/J	.	8f/J	.	8B-\	-bis	.	8B-\	-bis	8b-\	-bis	.	8b-\	-bis	.	8b-\	-bis	.	.	.	.	.	.	.	.	.	.
*Xtremolo	*	*	*Xtremolo	*	*Xtremolo	*	*	*	*	*	*	*	*	*	*	*	*	*	*	*	*	*	*	*	*	*	*	*	*
=70	=70	=70	=70	=70	=70	=70	=70	=70	=70	=70	=70	=70	=70	=70	=70	=70	=70	=70	=70	=70	=70	=70	=70	=70	=70	=70	=70	=70	=70
4BB-/	5	.	4d/	.	4f/	.	4B-\	o-	.	4d\	o-	4f\	o-	.	4ff\	o-	.	4f\	o-	16een\LL	.	.	2.ryy	2.ryy	2.ryy	0.r	.	0.r	.
.	.	.	.	.	.	.	.	.	.	.	.	.	.	.	.	.	.	.	.	16ff\	.	.	.	.	.	.	.	.	.
.	.	.	.	.	.	.	.	.	.	.	.	.	.	.	.	.	.	.	.	16gg\	.	.	.	.	.	.	.	.	.
.	.	.	.	.	.	.	.	.	.	.	.	.	.	.	.	.	.	.	.	16ff\JJ	.	.	.	.	.	.	.	.	.
4FF/	7	.	4c/	.	4e-/	.	4F\	-ra	.	4c\	-ra	4f\	-ra	.	4ee-\	-ra	.	4f\	-ra	4ee-X\	-ra	.	.	.	.	.	.	.	.
4BB-/	3	.	4B-/	.	4d/	.	4BB-/	pro	.	4B-\	pro	4f\	pro	.	4dd\	pro	.	4f\	pro	4dd\	pro	.	.	.	.	.	.	.	.
!	!	!	!	!	!	!	!	!	!	!	!	!	!	!	!	!	!	!	!	!LO:LB:g=original	!	!	!	!	!	!	!	!	!
=71	=71	=71	=71	=71	=71	=71	=71	=71	=71	=71	=71	=71	=71	=71	=71	=71	=71	=71	=71	=71	=71	=71	=71	=71	=71	=71	=71	=71	=71
4F\	6 4	.	4B-/	.	4d/	.	4F\	no-	.	4B-\	no-	4f\	no-	.	4dd\	no-	.	4f\	no-	4dd\	no-	.	2.ryy	2.ryy	2.ryy	.	.	.	.
8F\L	5 3	.	4A/	.	4c/	.	4F\	-bis	.	4A\	-bis	4f\	-bis	.	4cc\	-bis	.	4f\	-bis	4cc\	-bis	.	.	.	.	.	.	.	.
8E-|\	.	.	.	.	.	.	.	.	.	.	.	.	.	.	.	.	.	.	.	.	.	.	.	.	.	.	.	.	.
8D|\	.	.	4r	.	4r	.	4r	.	.	4r	.	4r	.	.	4r	.	.	4r	.	4r	.	.	.	.	.	.	.	.	.
8C|\J	.	.	.	.	.	.	.	.	.	.	.	.	.	.	.	.	.	.	.	.	.	.	.	.	.	.	.	.	.
=72	=72	=72	=72	=72	=72	=72	=72	=72	=72	=72	=72	=72	=72	=72	=72	=72	=72	=72	=72	=72	=72	=72	=72	=72	=72	=72	=72	=72	=72
!LO:TX:t=P:problem=mixed beam	!	!	!	!	!	!	!	!	!	!	!	!	!	!	!	!	!	!	!	!	!	!	!	!	!	!	!	!	!
!LO:TX:a:i:t=Solo	!	!	!	!	!	!	!LO:TX:a:t=1	!	!	!LO:TX:a:t=1.	!	!LO:TX:a:t=1.	!	!	!LO:TX:a:t=1.	!	!	!LO:TX:a:t=1.	!	!	!	!	!	!	!	!	!	!	!
8BB-/L	.	.	8r	.	8r	.	2.r	.	.	2.r	.	2.r	.	.	2.r	.	.	2.r	.	4.f/	Spe-	Im-	2.ryy	2.ryy	2.ryy	.	.	.	.
8B-\J	.	.	8d/	.	8f/	.	.	.	.	.	.	.	.	.	.	.	.	.	.	.	.	.	.	.	.	.	.	.	.
*tremolo	*	*	*tremolo	*	*tremolo	*	*	*	*	*	*	*	*	*	*	*	*	*	*	*	*	*	*	*	*	*	*	*	*
8B-\L	.	.	8d/L	.	8f/L	.	.	.	.	.	.	.	.	.	.	.	.	.	.	.	.	.	.	.	.	.	.	.	.
8B-\	.	.	8d/	.	8f/	.	.	.	.	.	.	.	.	.	.	.	.	.	.	8f/	-cu-	-pi-	.	.	.	.	.	.	.
8B-\	.	.	8d/	.	8f/	.	.	.	.	.	.	.	.	.	.	.	.	.	.	8dd\	-lum	-ger	.	.	.	.	.	.	.
8B-\J	.	.	8d/J	.	8f/J	.	.	.	.	.	.	.	.	.	.	.	.	.	.	8b-\	ju-	Mi-	.	.	.	.	.	.	.
*Xtremolo	*	*	*Xtremolo	*	*Xtremolo	*	*	*	*	*	*	*	*	*	*	*	*	*	*	*	*	*	*	*	*	*	*	*	*
!	!	!	!	!	!	!	!	!	!	!	!	!	!	!	!	!	!	!LO:LB:g=original	!	!	!	!	!	!	!	!	!	!	!
=73	=73	=73	=73	=73	=73	=73	=73	=73	=73	=73	=73	=73	=73	=73	=73	=73	=73	=73	=73	=73	=73	=73	=73	=73	=73	=73	=73	=73	=73
8r	.	.	8r	.	8r	.	8r	.	.	8r	.	8r	.	.	8r	.	.	8r	.	8.b-\	-sti-	-ni-	2.ryy	2.ryy	2.ryy	.	.	.	.
8F\	.	.	8e- 8c/	.	8f/	.	8F\	o-	.	8F/	o-	8f\	o-	.	8ff\	o-	.	8f\	o-	.	.	.	.	.	.	.	.	.	.
.	.	.	.	.	.	.	.	.	.	.	.	.	.	.	.	.	.	.	.	16a\	-ti-	.	.	.	.	.	.	.	.
*tremolo	*	*	*tremolo	*	*tremolo	*	*	*	*	*	*	*	*	*	*	*	*	*	*	*	*	*	*	*	*	*	*	*	*
!	!	!	!	!	!LO:TX:a:t=bis	!	!	!	!	!	!	!	!	!	!	!	!	!	!	!	!	!	!	!	!	!	!	!	!
8F\L	.	.	8e- 8c/L	.	8f/L	.	8F\	-ra	.	8F/	-ra	8f\	-ra	.	8ff\	-ra	.	8f\	-ra	4a\	-ae	-ster	.	.	.	.	.	.	.
8F\	.	.	8e- 8c/	.	8f/	.	8F\	pro	.	8F/	pro	8f\	pro	.	8ff\	pro	.	8f\	pro	.	.	.	.	.	.	.	.	.	.
8F\	.	.	8e- 8c/	.	8f/	.	8F\	no-	.	8F/	no-	8f\	no-	.	8ff\	no-	.	8f\	no-	4r	.	.	.	.	.	.	.	.	.
8F\J	.	.	8e- 8c/J	.	8f/J	.	8F\	-bis	.	8F/	-bis	8f\	-bis	.	8ff\	-bis	.	8f\	-bis	.	.	.	.	.	.	.	.	.	.
*Xtremolo	*	*	*Xtremolo	*	*Xtremolo	*	*	*	*	*	*	*	*	*	*	*	*	*	*	*	*	*	*	*	*	*	*	*	*
!	!	!	!	!	!	!	!	!	!	!	!	!LO:LB:g=original	!	!	!LO:LB:g=original	!	!	!	!	!	!	!	!	!	!	!	!	!	!
=74	=74	=74	=74	=74	=74	=74	=74	=74	=74	=74	=74	=74	=74	=74	=74	=74	=74	=74	=74	=74	=74	=74	=74	=74	=74	=74	=74	=74	=74
!	!	!	!LO:TX:a:t=bis	!	!	!	!LO:TX:a:t=1	!	!	!LO:TX:a:t=1	!	!LO:TX:a:t=1	!	!	!LO:TX:a:t=1.	!	!	!LO:TX:a:t=1.	!	!	!	!	!	!	!	!	!	!	!
8r	.	.	8r	.	8r	.	2.r	.	.	2.r	.	2.r	.	.	2.r	.	.	2.r	.	4.cc\	Se-	San-	2.ryy	2.ryy	2.ryy	0.r	.	0.r	.
8F\	.	.	8e- 8c/	.	8f/	.	.	.	.	.	.	.	.	.	.	.	.	.	.	.	.	.	.	.	.	.	.	.	.
*tremolo	*	*	*tremolo	*	*tremolo	*	*	*	*	*	*	*	*	*	*	*	*	*	*	*	*	*	*	*	*	*	*	*	*
8F\L	.	.	8e- 8c/L	.	8f/L	.	.	.	.	.	.	.	.	.	.	.	.	.	.	.	.	.	.	.	.	.	.	.	.
8F\	.	.	8e- 8c/	.	8f/	.	.	.	.	.	.	.	.	.	.	.	.	.	.	8cc\	-des	-cti	.	.	.	.	.	.	.
8F\	.	.	8e- 8c/	.	8f/	.	.	.	.	.	.	.	.	.	.	.	.	.	.	8ff\	sa-	Al-	.	.	.	.	.	.	.
8F\J	.	.	8e- 8c/J	.	8f/J	.	.	.	.	.	.	.	.	.	.	.	.	.	.	8ee-\	-pi-	.	.	.	.	.	.	.	.
*Xtremolo	*	*	*Xtremolo	*	*Xtremolo	*	*	*	*	*	*	*	*	*	*	*	*	*	*	*	*	*	*	*	*	*	*	*	*
=75	=75	=75	=75	=75	=75	=75	=75	=75	=75	=75	=75	=75	=75	=75	=75	=75	=75	=75	=75	=75	=75	=75	=75	=75	=75	=75	=75	=75	=75
8r	.	.	8r	.	8r	.	8r	.	.	8r	.	8r	.	.	8r	.	.	8r	.	8.ee-\	-en-	-ta-	2.ryy	2.ryy	2.ryy	.	.	.	.
8B-\	.	.	8d/	.	8f/	.	8B-\	o-	.	8B-\	o-	8b-\	o-	.	8b-\	o-	.	8b-\	o-	.	.	.	.	.	.	.	.	.	.
.	.	.	.	.	.	.	.	.	.	.	.	.	.	.	.	.	.	.	.	16dd\	-ti-	-ri-	.	.	.	.	.	.	.
*tremolo	*	*	*tremolo	*	*tremolo	*	*	*	*	*	*	*	*	*	*	*	*	*	*	*	*	*	*	*	*	*	*	*	*
8B-\L	.	.	8d/L	.	8f/L	.	8B-\	-ra	.	8B-\	-ra	8b-\	-ra	.	8b-\	-ra	.	8b-\	-ra	4dd\	-ae	-e	.	.	.	.	.	.	.
8B-\	.	.	8d/	.	8f/	.	8B-\	pro	.	8B-\	pro	8b-\	pro	.	8b-\	pro	.	8b-\	pro	.	.	.	.	.	.	.	.	.	.
8B-\	.	.	8d/	.	8f/	.	8B-\	no-	.	8B-\	no-	8b-\	no-	.	8b-\	no-	.	8b-\	no-	4r	.	.	.	.	.	.	.	.	.
8B-\J	.	.	8d/J	.	8f/J	.	8B-\	-bis	.	8B-\	-bis	8b-\	-bis	.	8b-\	-bis	.	8b-\	-bis	.	.	.	.	.	.	.	.	.	.
*Xtremolo	*	*	*Xtremolo	*	*Xtremolo	*	*	*	*	*	*	*	*	*	*	*	*	*	*	*	*	*	*	*	*	*	*	*	*
!LO:LB:g=original	!	!	!	!	!	!	!LO:LB:g=original	!	!	!LO:LB:g=original	!	!	!	!	!	!	!	!	!	!LO:LB:g=original	!	!	!	!	!	!	!	!	!
=76	=76	=76	=76	=76	=76	=76	=76	=76	=76	=76	=76	=76	=76	=76	=76	=76	=76	=76	=76	=76	=76	=76	=76	=76	=76	=76	=76	=76	=76
!	!	!	!LO:TX:t=P:problem=takty nr 76-79 zapisane repetycją	!	!LO:TX:t=P:problem=takty nr 76-79 zapisane repetycją	!	!LO:TX:a:t=1	!	!	!LO:TX:a:t=1	!	!LO:TX:a:t=1.	!	!	!LO:TX:a:t=1.	!	!	!LO:TX:a:t=1.	!	!	!	!	!	!	!	!	!	!	!
8r	.	.	8ryy	.	8ryy	.	2.r	.	.	2.r	.	2.r	.	.	2.r	.	.	2.r	.	8.f/	Cau-	Vir-	2.ryy	2.ryy	2.ryy	.	.	.	.
8B-\	.	.	8d/yy	.	8f/yy	.	.	.	.	.	.	.	.	.	.	.	.	.	.	.	.	.	.	.	.	.	.	.	.
.	.	.	.	.	.	.	.	.	.	.	.	.	.	.	.	.	.	.	.	16f/	-sa	.	.	.	.	.	.	.	.
*tremolo	*	*	*tremolo	*	*tremolo	*	*	*	*	*	*	*	*	*	*	*	*	*	*	*	*	*	*	*	*	*	*	*	*
8B-\L	.	.	8d/Lyy	.	8f/Lyy	.	.	.	.	.	.	.	.	.	.	.	.	.	.	4f/	nos-	-go	.	.	.	.	.	.	.
8B-\	.	.	8d/yy	.	8f/yy	.	.	.	.	.	.	.	.	.	.	.	.	.	.	.	.	.	.	.	.	.	.	.	.
8B-\	.	.	8d/yy	.	8f/yy	.	.	.	.	.	.	.	.	.	.	.	.	.	.	8dd\	-trae	A-	.	.	.	.	.	.	.
8B-\J	.	.	8d/Jyy	.	8f/Jyy	.	.	.	.	.	.	.	.	.	.	.	.	.	.	8b-\	le-	-po-	.	.	.	.	.	.	.
*Xtremolo	*	*	*Xtremolo	*	*Xtremolo	*	*	*	*	*	*	*	*	*	*	*	*	*	*	*	*	*	*	*	*	*	*	*	*
=77	=77	=77	=77	=77	=77	=77	=77	=77	=77	=77	=77	=77	=77	=77	=77	=77	=77	=77	=77	=77	=77	=77	=77	=77	=77	=77	=77	=77	=77
8r	.	.	8ryy	.	8ryy	.	8r	.	.	8r	.	8r	.	.	8r	.	.	8r	.	8.b-\	-ti-	-sto-	2.ryy	2.ryy	2.ryy	.	.	.	.
8F\	.	.	8e-yy 8c/yy	.	8f/yy	.	8F\	o-	.	8F/	o-	8f\	o-	.	8ff\	o-	.	8f\	o-	.	.	.	.	.	.	.	.	.	.
.	.	.	.	.	.	.	.	.	.	.	.	.	.	.	.	.	.	.	.	16a\	-ti-	-li-	.	.	.	.	.	.	.
*tremolo	*	*	*tremolo	*	*tremolo	*	*	*	*	*	*	*	*	*	*	*	*	*	*	*	*	*	*	*	*	*	*	*	*
8F\L	.	.	8e-yy 8c/Lyy	.	8f/Lyy	.	8F\	-ra	.	8F/	-ra	8f\	-ra	.	8ff\	-ra	.	8f\	-ra	4a\	-ae	-ce	.	.	.	.	.	.	.
8F\	.	.	8e-yy 8c/yy	.	8f/yy	.	8F\	pro	.	8F/	pro	8f\	pro	.	8ff\	pro	.	8f\	pro	.	.	.	.	.	.	.	.	.	.
8F\	.	.	8e-yy 8c/yy	.	8f/yy	.	8F\	no-	.	8F/	no-	8f\	no-	.	8ff\	no-	.	8f\	no-	4r	.	.	.	.	.	.	.	.	.
8F\J	.	.	8e-yy 8c/Jyy	.	8f/Jyy	.	8F\	-bis	.	8F/	-bis	8f\	-bis	.	8ff\	-bis	.	8f\	-bis	.	.	.	.	.	.	.	.	.	.
*Xtremolo	*	*	*Xtremolo	*	*Xtremolo	*	*	*	*	*	*	*	*	*	*	*	*	*	*	*	*	*	*	*	*	*	*	*	*
=78	=78	=78	=78	=78	=78	=78	=78	=78	=78	=78	=78	=78	=78	=78	=78	=78	=78	=78	=78	=78	=78	=78	=78	=78	=78	=78	=78	=78	=78
!	!	!	!	!	!	!	!LO:TX:a:t=1.	!	!	!LO:TX:a:t=1	!	!LO:TX:a:t=1.	!	!	!LO:TX:a:t=1	!	!	!LO:TX:a:t=1.	!	!	!	!	!	!	!	!	!	!	!
8r	.	.	8ryy	.	8ryy	.	2.r	.	.	2.r	.	2.r	.	.	2.r	.	.	2.r	.	4.cc\	Vas	San-	2.ryy	2.ryy	2.ryy	0.r	.	0.r	.
8F\	.	.	8e-yy 8c/yy	.	8f/yy	.	.	.	.	.	.	.	.	.	.	.	.	.	.	.	.	.	.	.	.	.	.	.	.
*tremolo	*	*	*tremolo	*	*tremolo	*	*	*	*	*	*	*	*	*	*	*	*	*	*	*	*	*	*	*	*	*	*	*	*
8F\L	.	.	8e-yy 8c/Lyy	.	8f/Lyy	.	.	.	.	.	.	.	.	.	.	.	.	.	.	.	.	.	.	.	.	.	.	.	.
8F\	.	.	8e-yy 8c/yy	.	8f/yy	.	.	.	.	.	.	.	.	.	.	.	.	.	.	8cc\	Spi-	-cte	.	.	.	.	.	.	.
8F\	.	.	8e-yy 8c/yy	.	8f/yy	.	.	.	.	.	.	.	.	.	.	.	.	.	.	8ff\	-ri-	Al-	.	.	.	.	.	.	.
8F\J	.	.	8e-yy 8c/Jyy	.	8f/Jyy	.	.	.	.	.	.	.	.	.	.	.	.	.	.	8ee-\	-tu-	-ta-	.	.	.	.	.	.	.
*Xtremolo	*	*	*Xtremolo	*	*Xtremolo	*	*	*	*	*	*	*	*	*	*	*	*	*	*	*	*	*	*	*	*	*	*	*	*
=79	=79	=79	=79	=79	=79	=79	=79	=79	=79	=79	=79	=79	=79	=79	=79	=79	=79	=79	=79	=79	=79	=79	=79	=79	=79	=79	=79	=79	=79
8r	.	.	8ryy	.	8ryy	.	8r	.	.	8r	.	8r	.	.	8r	.	.	8r	.	8.ee-\L	-a-	.	2.ryy	2.ryy	2.ryy	.	.	.	.
8B-\	.	.	8d/yy	.	8f/yy	.	8B-\	o-	.	8B-\	o-	8b-\	o-	.	8b-\	o-	.	8b-\	o-	.	.	.	.	.	.	.	.	.	.
.	.	.	.	.	.	.	.	.	.	.	.	.	.	.	.	.	.	.	.	16dd\Jk	.	.	.	.	.	.	.	.	.
*tremolo	*	*	*tremolo	*	*tremolo	*	*	*	*	*	*	*	*	*	*	*	*	*	*	*	*	*	*	*	*	*	*	*	*
8B-\L	.	.	8d/Lyy	.	8f/Lyy	.	8B-\	-ra	.	8B-\	-ra	8b-\	-ra	.	8b-\	-ra	.	8b-\	-ra	4dd\	-le	-ris	.	.	.	.	.	.	.
8B-\	.	.	8d/yy	.	8f/yy	.	8B-\	pro	.	8B-\	pro	8b-\	pro	.	8b-\	pro	.	8b-\	pro	.	.	.	.	.	.	.	.	.	.
8B-\	.	.	8d/yy	.	8f/yy	.	8B-\	no-	.	8B-\	no-	8b-\	no-	.	8b-\	no-	.	8b-\	no-	4f/	o-	.	.	.	.	.	.	.	.
8B-\J	.	.	8d/Jyy	.	8f/Jyy	.	8B-\	-bis	.	8B-\	-bis	8b-\	-bis	.	8b-\	-bis	.	8b-\	-bis	.	.	.	.	.	.	.	.	.	.
!	!	!	!LO:LB:g=original	!	!	!	!	!	!	!	!	!	!	!	!	!	!	!LO:LB:g=original	!	!LO:LB:g=original	!	!	!	!	!	!	!	!	!
=80	=80	=80	=80	=80	=80	=80	=80	=80	=80	=80	=80	=80	=80	=80	=80	=80	=80	=80	=80	=80	=80	=80	=80	=80	=80	=80	=80	=80	=80
!	!	!	!LO:TX:b:t=......	!	!	!	!LO:TX:a:t=7.	!	!	!LO:TX:a:t=7.	!	!LO:TX:a:t=7.	!	!	!LO:TX:a:t=7.	!	!	!LO:TX:a:t=7.	!	!	!	!	!	!	!	!	!	!	!
8E-\L	3	.	8B-'/L	.	8g/L	.	0.r	.	.	0.r	.	0.r	.	.	0.r	.	.	0.r	.	8g/L	.	.	2.ryy	2.ryy	2.ryy	.	.	.	.
8E-\	.	.	8B-'/	.	8g/	.	.	.	.	.	.	.	.	.	.	.	.	.	.	8f/J	.	.	.	.	.	.	.	.	.
8E-\	.	.	8B-'/	.	8g/	.	.	.	.	.	.	.	.	.	.	.	.	.	.	4.e-/	.	.	.	.	.	.	.	.	.
8E-\	.	.	8B-'/	.	8g/	.	.	.	.	.	.	.	.	.	.	.	.	.	.	.	.	.	.	.	.	.	.	.	.
8E-\	.	.	8B-'/	.	8g/	.	.	.	.	.	.	.	.	.	.	.	.	.	.	.	.	.	.	.	.	.	.	.	.
8E-\J	.	.	8B-'/J	.	8g/J	.	.	.	.	.	.	.	.	.	.	.	.	.	.	8g/	.	.	.	.	.	.	.	.	.
=81	=81	=81	=81	=81	=81	=81	=81	=81	=81	=81	=81	=81	=81	=81	=81	=81	=81	=81	=81	=81	=81	=81	=81	=81	=81	=81	=81	=81	=81
8F\L	3	.	8c/L	.	8a/L	.	.	.	.	.	.	.	.	.	.	.	.	.	.	8a\L	.	.	2.ryy	2.ryy	2.ryy	.	.	.	.
8F\	.	.	8c/	.	8a/	.	.	.	.	.	.	.	.	.	.	.	.	.	.	8g\J	.	.	.	.	.	.	.	.	.
8F\	.	.	8c/	.	8a/	.	.	.	.	.	.	.	.	.	.	.	.	.	.	4.f\	.	.	.	.	.	.	.	.	.
8F\	.	.	8c/	.	8a/	.	.	.	.	.	.	.	.	.	.	.	.	.	.	.	.	.	.	.	.	.	.	.	.
8F\	.	.	8c/	.	8a/	.	.	.	.	.	.	.	.	.	.	.	.	.	.	.	.	.	.	.	.	.	.	.	.
8F\J	.	.	8c/J	.	8a/J	.	.	.	.	.	.	.	.	.	.	.	.	.	.	8a\	.	.	.	.	.	.	.	.	.
!	!	!	!	!	!LO:LB:g=original	!	!	!	!	!	!	!	!	!	!	!	!	!	!	!	!	!	!	!	!	!	!	!	!
=82	=82	=82	=82	=82	=82	=82	=82	=82	=82	=82	=82	=82	=82	=82	=82	=82	=82	=82	=82	=82	=82	=82	=82	=82	=82	=82	=82	=82	=82
8G\L	3	.	8d/L	.	8b-\L	.	.	.	.	.	.	.	.	.	.	.	.	.	.	8b-\L	.	.	2.ryy	2.ryy	2.ryy	0.r	.	0.r	.
8G\	.	.	8d/	.	8b-\	.	.	.	.	.	.	.	.	.	.	.	.	.	.	8a\J	.	.	.	.	.	.	.	.	.
8G\	.	.	8d/	.	8b-\	.	.	.	.	.	.	.	.	.	.	.	.	.	.	4.g\	.	.	.	.	.	.	.	.	.
8G\	.	.	8d/	.	8b-\	.	.	.	.	.	.	.	.	.	.	.	.	.	.	.	.	.	.	.	.	.	.	.	.
8G\	.	.	8d/	.	8b-\	.	.	.	.	.	.	.	.	.	.	.	.	.	.	.	.	.	.	.	.	.	.	.	.
8G\J	.	.	8d/J	.	8b-\J	.	.	.	.	.	.	.	.	.	.	.	.	.	.	8b-\	.	.	.	.	.	.	.	.	.
=83	=83	=83	=83	=83	=83	=83	=83	=83	=83	=83	=83	=83	=83	=83	=83	=83	=83	=83	=83	=83	=83	=83	=83	=83	=83	=83	=83	=83	=83
8A\L	3	.	8e-/L	.	8cc\L	.	.	.	.	.	.	.	.	.	.	.	.	.	.	8cc\L	.	.	2.ryy	2.ryy	2.ryy	.	.	.	.
8A\	.	.	8e-/	.	8cc\	.	.	.	.	.	.	.	.	.	.	.	.	.	.	8a\J	.	.	.	.	.	.	.	.	.
8A\	.	.	8e-/	.	8cc\	.	.	.	.	.	.	.	.	.	.	.	.	.	.	4ff\	.	.	.	.	.	.	.	.	.
8A\J	.	.	8e-/J	.	8cc\	.	.	.	.	.	.	.	.	.	.	.	.	.	.	.	.	.	.	.	.	.	.	.	.
*Xtremolo	*	*	*Xtremolo	*	*	*	*	*	*	*	*	*	*	*	*	*	*	*	*	*	*	*	*	*	*	*	*	*	*
8F\L	7	.	8a/L	.	8cc\	.	.	.	.	.	.	.	.	.	.	.	.	.	.	4ee-\	.	.	.	.	.	.	.	.	.
8F\J	.	.	8a/J	.	8cc\J	.	.	.	.	.	.	.	.	.	.	.	.	.	.	.	.	.	.	.	.	.	.	.	.
*	*	*	*	*	*Xtremolo	*	*	*	*	*	*	*	*	*	*	*	*	*	*	*	*	*	*	*	*	*	*	*	*
=84	=84	=84	=84	=84	=84	=84	=84	=84	=84	=84	=84	=84	=84	=84	=84	=84	=84	=84	=84	=84	=84	=84	=84	=84	=84	=84	=84	=84	=84
4B-\	3	.	(8b-\L	.	(8dd\L	.	1.r	.	.	1.r	.	1.r	.	.	1.r	.	.	1.r	.	8dd\L	.	.	2.ryy	2.ryy	2.ryy	.	.	.	.
.	.	.	8cc\	.	8ee-\	.	.	.	.	.	.	.	.	.	.	.	.	.	.	8ee-\	.	.	.	.	.	.	.	.	.
4r	.	.	8dd\	.	8ff\	.	.	.	.	.	.	.	.	.	.	.	.	.	.	8ff\	.	.	.	.	.	.	.	.	.
.	.	.	8ee-\	.	8gg\	.	.	.	.	.	.	.	.	.	.	.	.	.	.	8gg\	.	.	.	.	.	.	.	.	.
4r	.	.	8cc\	.	8aa\	.	.	.	.	.	.	.	.	.	.	.	.	.	.	8aa\	.	.	.	.	.	.	.	.	.
.	.	.	8dd\J)	.	8bb-\J)	.	.	.	.	.	.	.	.	.	.	.	.	.	.	8bb-\J	.	.	.	.	.	.	.	.	.
=85	=85	=85	=85	=85	=85	=85	=85	=85	=85	=85	=85	=85	=85	=85	=85	=85	=85	=85	=85	=85	=85	=85	=85	=85	=85	=85	=85	=85	=85
4r	.	.	4ee-X\	.	4gg\	.	.	.	.	.	.	.	.	.	.	.	.	.	.	4gg\	.	.	2.ryy	2.ryy	2.ryy	.	.	.	.
4r	.	.	4dd\	.	4ff\	.	.	.	.	.	.	.	.	.	.	.	.	.	.	4ff\	.	.	.	.	.	.	.	.	.
4F\	7	.	4cc\	.	4ee-\	.	.	.	.	.	.	.	.	.	.	.	.	.	.	4ee-\	.	.	.	.	.	.	.	.	.
=86	=86	=86	=86	=86	=86	=86	=86	=86	=86	=86	=86	=86	=86	=86	=86	=86	=86	=86	=86	=86	=86	=86	=86	=86	=86	=86	=86	=86	=86
8B-\L	4	.	8b-\L	.	8dd\L	.	2.r	.	.	2.r	.	2.r	.	.	2.r	.	.	2.r	.	8dd\	-ra	.	2.ryy	2.ryy	2.ryy	2.r	.	2.r	.
8E-\J	6	.	8cc\J	.	8ee-\J	.	.	.	.	.	.	.	.	.	.	.	.	.	.	(16ee-\LL	pro	.	.	.	.	.	.	.	.
.	.	.	.	.	.	.	.	.	.	.	.	.	.	.	.	.	.	.	.	16cc\JJ)	.	.	.	.	.	.	.	.	.
4F\	4	.	(4b-\	.	(4dd\	.	.	.	.	.	.	.	.	.	.	.	.	.	.	(4b-\	no-	.	.	.	.	.	.	.	.
4FF/	3	.	4a\)	.	4cc\)	.	.	.	.	.	.	.	.	.	.	.	.	.	.	4a\)	.	.	.	.	.	.	.	.	.
!LO:LB:g=original	!	!	!	!	!	!	!	!	!	!	!	!	!	!	!LO:LB:g=original	!	!	!	!	!LO:LB:g=original	!	!	!	!	!	!LO:LB:g=original	!	!	!
=87	=87	=87	=87	=87	=87	=87	=87	=87	=87	=87	=87	=87	=87	=87	=87	=87	=87	=87	=87	=87	=87	=87	=87	=87	=87	=87	=87	=87	=87
2BB-/	1	.	2d/	.	2b-\	.	4r	.	.	4r	.	4r	.	.	4r	.	.	4r	.	2b-\	-bis	.	2.ryy	2.ryy	2.ryy	4r	.	4r	.
.	.	.	.	.	.	.	4r	.	.	4r	.	4r	.	.	4r	.	.	4r	.	.	.	.	.	.	.	4r	.	4r	mf
4r	.	.	4r	.	4r	.	4E-\	o-	.	4e-\	o-	4b-\	o-	.	4gg\	o-	.	4b-\	o-	4gg\	o-	.	.	.	.	4ee-X\	.	4gg\	.
=88	=88	=88	=88	=88	=88	=88	=88	=88	=88	=88	=88	=88	=88	=88	=88	=88	=88	=88	=88	=88	=88	=88	=88	=88	=88	=88	=88	=88	=88
!LO:TX:a:t=1	!	!	!LO:TX:a:t=1.	!	!LO:TX:a:t=1	!	!	!	!	!	!	!	!	!	!	!	!	!	!	!	!	!	!	!	!	!	!	!	!
2.r	.	.	2.r	.	2.r	.	8BB-/	-ra	.	8d\	-ra	8b-\	-ra	.	8ff\	-ra	.	8b-\	-ra	8ff\	-ra	.	2.ryy	2.ryy	2.ryy	8dd\L	.	8ff\L	.
.	.	.	.	.	.	.	8E-\	pro	.	(16e-\LL	pro	8cc\	pro	.	8ee-\	pro	.	8cc\	pro	(16gg\LL	pro	.	.	.	.	8cc\J	.	8ee-\J	.
.	.	.	.	.	.	.	.	.	.	16g\JJ)	.	.	.	.	.	.	.	.	.	16ee-\JJ)	.	.	.	.	.	.	.	.	.
.	.	.	.	.	.	.	(4F\	no-	.	(4f\	no-	(4b-\	no-	.	(4dd\	no-	.	(4b-\	no-	(4dd\	no-	.	.	.	.	4b-\	.	4dd\	.
.	.	.	.	.	.	.	4FF/)	.	.	4e-\)	.	4a\)	.	.	4cc\)	.	.	4a\)	.	4cc\)	.	.	.	.	.	4a\	.	4cc\	.
=89	=89	=89	=89	=89	=89	=89	=89	=89	=89	=89	=89	=89	=89	=89	=89	=89	=89	=89	=89	=89	=89	=89	=89	=89	=89	=89	=89	=89	=89
!	!	!LO:DY:rj	!	!LO:DY:rj:t=mf	!LO:TX:b:i:t=dolce	!LO:DY:rj	!	!	!	!	!	!	!	!	!	!	!	!	!	!	!	!	!	!	!	!	!	!	!
4BB-/	.	mf	4d/	mf	(8b-/L	mf	4BB-/	-bis	.	4d\	-bis	4f\	-bis	.	4b-\	-bis	.	4f\	-bis	4b-\	-bis	.	2.ryy	2.ryy	2.ryy	2.d/	.	2.b-\	.
.	8_ 5_	.	.	.	8f/J)	.	.	.	.	.	.	.	.	.	.	.	.	.	.	.	.	.	.	.	.	.	.	.	.
4D/	.	.	8r	.	(16g/LL	.	4r	.	.	4r	.	4r	.	.	4r	.	.	4r	.	4r	.	.	.	.	.	.	.	.	.
.	.	.	.	.	16f/	.	.	.	.	.	.	.	.	.	.	.	.	.	.	.	.	.	.	.	.	.	.	.	.
.	.	.	8d|/L	.	16en/	.	.	.	.	.	.	.	.	.	.	.	.	.	.	.	.	.	.	.	.	.	.	.	.
.	.	.	.	.	16f/JJ)	.	.	.	.	.	.	.	.	.	.	.	.	.	.	.	.	.	.	.	.	.	.	.	.
4BB-/	.	.	(8f/	.	(8dd\L	.	4r	.	.	4r	.	4r	.	.	4r	.	.	4r	.	4r	.	.	.	.	.	.	.	.	.
.	.	.	8d/J)	.	8b-J)	.	.	.	.	.	.	.	.	.	.	.	.	.	.	.	.	.	.	.	.	.	.	.	.
!	!	!	!	!	!LO:LB:g=original	!	!	!	!	!	!	!	!	!	!	!	!	!	!	!	!	!	!	!	!	!	!	!	!
=90	=90	=90	=90	=90	=90	=90	=90	=90	=90	=90	=90	=90	=90	=90	=90	=90	=90	=90	=90	=90	=90	=90	=90	=90	=90	=90	=90	=90	=90
!	!	!	!	!	!	!	!LO:TX:a:t=3.	!	!	!LO:TX:a:t=3	!	!LO:TX:a:t=3	!	!	!LO:TX:a:t=3.	!	!	!LO:TX:a:t=3.	!	!LO:TX:a:t=3.	!	!	!	!	!	!	!	!	!
4F\	3_	.	4c/	.	(8b-\L	.	1.r	.	.	1.r	.	1.r	.	.	1.r	.	.	1.r	.	1.r	.	.	2.ryy	2.ryy	2.ryy	2.a\	.	2.cc\	.
.	.	.	.	.	8a\J)	.	.	.	.	.	.	.	.	.	.	.	.	.	.	.	.	.	.	.	.	.	.	.	.
4A\	.	.	8r	.	(16a\LL	.	.	.	.	.	.	.	.	.	.	.	.	.	.	.	.	.	.	.	.	.	.	.	.
.	.	.	.	.	16cc\	.	.	.	.	.	.	.	.	.	.	.	.	.	.	.	.	.	.	.	.	.	.	.	.
.	.	.	8ee-|\L	.	16ee-\	.	.	.	.	.	.	.	.	.	.	.	.	.	.	.	.	.	.	.	.	.	.	.	.
.	.	.	.	.	16gg\JJ)	.	.	.	.	.	.	.	.	.	.	.	.	.	.	.	.	.	.	.	.	.	.	.	.
4F\	7	.	(8dd\	.	(8ff\L	.	.	.	.	.	.	.	.	.	.	.	.	.	.	.	.	.	.	.	.	.	.	.	.
.	.	.	8cc\J)	.	8ee-\J)	.	.	.	.	.	.	.	.	.	.	.	.	.	.	.	.	.	.	.	.	.	.	.	.
=91	=91	=91	=91	=91	=91	=91	=91	=91	=91	=91	=91	=91	=91	=91	=91	=91	=91	=91	=91	=91	=91	=91	=91	=91	=91	=91	=91	=91	=91
4B-\	3	.	(8b-\L	.	(8dd\L	.	.	.	.	.	.	.	.	.	.	.	.	.	.	.	.	.	2.ryy	2.ryy	2.ryy	4b-\	.	4dd\	.
.	.	.	8dd\J)	.	8bb-\)	.	.	.	.	.	.	.	.	.	.	.	.	.	.	.	.	.	.	.	.	.	.	.	.
4E-\	10	.	(8ee-\L	.	(8cc\	.	.	.	.	.	.	.	.	.	.	.	.	.	.	.	.	.	.	.	.	4ee-\	.	4gg\	.
.	.	.	8cc\J)	.	8gg\J)	.	.	.	.	.	.	.	.	.	.	.	.	.	.	.	.	.	.	.	.	.	.	.	.
4F\	3	.	(8a/L	.	8ff|\L	.	.	.	.	.	.	.	.	.	.	.	.	.	.	.	.	.	.	.	.	4cc\	.	4ee-\	.
.	.	.	8e-/J)	.	8a|\J	.	.	.	.	.	.	.	.	.	.	.	.	.	.	.	.	.	.	.	.	.	.	.	.
=92	=92	=92	=92	=92	=92	=92	=92	=92	=92	=92	=92	=92	=92	=92	=92	=92	=92	=92	=92	=92	=92	=92	=92	=92	=92	=92	=92	=92	=92
4BB-/	1	.	4d/	.	4b-\	.	2.r	.	.	2.r	.	2.r	.	.	2.r	.	.	2.r	.	2.r	.	.	2.ryy	2.ryy	2.ryy	4b-\	.	4dd\	.
4B-\	1	.	4B-/	.	4B-/	.	.	.	.	.	.	.	.	.	.	.	.	.	.	.	.	.	.	.	.	4b-\	.	4b-\	.
4r	.	.	4r	.	4r	.	.	.	.	.	.	.	.	.	.	.	.	.	.	.	.	.	.	.	.	4r	.	4r	.
==	==	==	==	==	==	==	==	==	==	==	==	==	==	==	==	==	==	==	==	==	==	==	==	==	==	==	==	==	==
*-	*-	*-	*-	*-	*-	*-	*-	*-	*-	*-	*-	*-	*-	*-	*-	*-	*-	*-	*-	*-	*-	*-	*-	*-	*-	*-	*-	*-	*-
!!!system-decoration: [(g1)][(g2)][(g3)][(g4)][(g5)]<s14>
!!!RDF**kern: > = above
!!!RDF**kern: < = below
!!!RDF**kern: | = vertical stroke
!!!RDF**dynam: mf = "mf."
!!!ENC: Marcin Jachim
!!!END: 2020-10-10
!!!ENC: Andrzej Kubiczek
!!!END: 2022-01-16
!!!YEC: Copyright 2022 Narodowy Instytut Fryderyka Chopina (https://polishscores.org)
!!!YEM: License CC-BY-4.0 (https://creativecommons.org/licenses/by/4.0)
